X:1
T:Introduction à l'étude de la guitare, Op.60
T:25 Etudes
T: Fernando Sor (1778 - 1839)
%%score ( 1 2 3 4 ) ( 5 6 7 8 ) 9
L:1/8
Q:1/4=132
M:4/4
K:C
V:1 treble-8 nm="Classical Guitar"
V:2 treble-8 
V:3 treble-8 
V:4 treble-8 
V:5 tab stafflines=6 strings=E2,A2,D3,G3,B3,E4 nostems nm="Guitare classique (Tablature)"
V:6 tab stafflines=6 strings=E2,A2,D3,G3,B3,E4 nostems 
V:7 tab stafflines=6 strings=E2,A2,D3,G3,B3,E4 nostems 
V:8 tab stafflines=6 strings=E2,A2,D3,G3,B3,E4 nostems 
V:9 perc stafflines=1 nm="Wood Blocks"
K:none
I:percmap F c 76 normal
V:1
 z8 | z8 |:[M:4/4][Q:1/4=132]"^1." !1!c4 B2 G2 | !1!c4 B2 G2 | !1!c2 !4!d2 e2 g2 | %5
 !1!f2 e2 !4!d2 G2 | !1!c4 B2 G2 | !1!c2 e2 !4!d2 B2 | !2!A2 !1!c2 D2 !3!^f2 | %9
 !4!g2 [DGB]2 !2!G,2 z2 :: !4!g2 G2 e2 !4!g2 | !1!f2 G2 !4!d2 !1!f2 | e2 G2 !1!c2 e2 | %13
 !4!d2 B2 G2 !3!F2 | !2!E2 G2 !1!c2 E2 | !3!F2 !2!A2 D2 F2 | !2!E2 G2 !3!G,2 !2!B,2 | %17
 !3!C2 !1![Gce]2 C2 z2 :|[M:3/4][Q:1/4=160] z6 | z6 |[M:3/4][Q:1/4=160]"^2." G2 e2 !1!c2 | %21
 c2 B!1!c !4!d2 | G2 f2 !4!d2 | d2 !1!c!4!d e2 | G2 !1!c2 e2 | !4!g2 f2 !4!dB | !1!c2 G2 e2 | %27
 !2!^c2 !4!d!1!=cB!2!A | G2 e2 !1!c2 | c2 B!1!c !4!d2 | G2 f2 !4!d2 | d2 !1!c!4!d e2 | %32
 G2 !1!c2 e2 | !4!g2 !1!f2 !4!d2 | cG e2 !4!dB | !1!c2 !3!C2 z2 | B2 G2 !4!d2 | !1!c4 !2!A2 | %38
 D2 !2!A2 !1!c2 | B4 G2 | !4!g2 !2!^f2 !1!=f2 | e2 !1!c2 !2!A2 | BD !4!d2 !1!c!2!A | G2 !3!G,2 z2 | %44
 G2 B2 !4!d2 | G2 !1!c2 e2 | G2 f2 e2 | !4!d!2!^c !4!dB G2 | G2 B!1!c !4!d2 | G2 !1!c!4!d e2 | %50
 G2 !4!d!1!f e!1!c | !4!d4 G2 | e2 !4!d2 !1!c2 | B2 !1!^G2 !2!A2 | !1!f2 e2 !4!d2 | !1!c4 B2 | %56
 G2 !4!g2 !1!f2 | e2 B2 !1!c2 | !4!d2 !2!A2 B2 | !1!c4 z2 |][M:4/4][Q:1/4=160] z8 | z8 | %62
[Q:1/4=160]"^3." !2!C2 !1!B,2 !2!C2 !1!E2 | G2 !2!G,2 G2 !2!F2 | !1!E2 D2 !2!C2 D2 | %65
 !1!B,2 A,2 !2!G,2 A,!1!B, | !2!C2 D2 !1!E2 !2!C2 | D2 !1!E!3!^F G!1!A!3!BG | !1!E2 !2!C2 A,2 D2 | %69
 !2!G,2 G!3!F !1!E2 D2 | !3!^C2 !1!E2 A,2 !1!B,!3!C | D2 !1!E2 !2!F2 G!1!A | %72
 !2!_B2 G2 !1!E2 !1!AG | !2!F2 E2 D2 !2!C2 | !1!B,2 D2 !2!G,2 G!3!F | !2!E2 D2 !3!C2 !1!cB | %76
 !2!AG!4!^F!1!E D!2!C!1!B,A, | !2!G,2 !1!B,D G2 !3!F2 | !1!E2 D2 !2!C2 D!1!E | !2!F2 G2 !1!A2 G2 | %80
 !3!^F2 !1!E2 D2 E!3!F | G2 !1!A2 !3!B2 !1!A2 | !1!^G2 !4!^F2 !2!E2 !4!F!1!G | %83
 !2!A2 !0!B2 !1!c2 !0!B2 | !2!AG!3!FE D2 G2 | !3!C2 !1!c2 !3!C2 z2 |][K:Eb][M:3/4][Q:1/4=92] z6 | %87
 z4 |:[M:3/4][Q:1/4=92]"^4." G2 | !1!E>D !3!C2 !1!c2 | =B>!1!c !4!d2 G2 | %91
 !1!c>!3!d !4!e=e!1!f!2!^f | !4!g2 G2 G2 | !1!c>!3!d !4!e2 !3!d>!1!c | !3!B>!2!A G!3!F!1!ED | %95
 !3!C2 !1!A2 !4!F>D | !1!E2 z2 :: !3!B2 | !4!g>!1!f =e2 !1!c2 | !4!a>!3!g !1!f2 !4!e2 | %100
 !2!_d!1!c!2!d!4!a!1!f!2!d | !1!c2 =B2 G2 | !1!f>!4!d =B2 G2 | !1!c>!3!d !4!e!3!d!1!c!3!B | %104
 !1!AG!3!F!1!ED!3!C | !0!G2 !2!G,2 G2 | !1!E>D !3!C2 !1!c2 | =B>c !4!d2 G2 | %108
 !1!c>!3!d !4!e=e!1!f!2!^f | !4!g2 G2 !4!g>!1!f | =e!4!ge!1!c!4!BG | !3!F>G !1!A2 G!4!^F | %112
 G>!1!c !4!e2 !3!d>=B | !1!c2 C2 z2 :|[K:C][M:6/8][Q:3/8=84] z6 | z6 |: %116
[M:6/8]S[Q:3/8=84]"^5."x!2!AB !1!c!4!de |x!4!de !1!f!4!dB |!2!x!1!^GBxe!4!d |x!1!cB (!4!d!1!c)B | %120
x!2!AB !1!c!4!de |x!4!de !1!f!4!dB |!2!x!1!^GB !3!A!2!E!1!c | B^Ge E,2 z ::!2!x!1!^GB e!4!dB | %125
 !1!c!3!A!1!c ecA |x!1!^GB e!4!dB |x!1!cB !2!A!1!ce |x!1!ffxBB |!3!xee!4!x!2!AA |xBB!2!x!1!^GG | %131
x!3!A!2!E A,2 z!fine! ::[K:A]x!2!c!1!A e3 |x!2!d!1!c B3 |x!1!cB !1!AB!2!c | Be!4!^d (!1!fe)!2!=d | %136
x!1!c!2!d e3 |x!2!d!1!c B3 |x!2!ce !4!d!0!B!1!G |x!2!A!3!c A,2 z ::x!1!GB !4!d3 |x!2!ce !4!a3 | %142
x!3!g!1!f fe!2!d | !1!c!2!d!3!^d !0!e!3!c!2!A |x!1!GB !4!d3 |x!1!ce a3- | a!1!f!3!^d !0!B!2!A!4!F | %147
x!1!G!0!B !0!e!4!d!0!B |x!3!c!2!A !0!e3 |x!4!d!3!c B3 |x!3!c!0!B !2!ABc | Be!4!^d (!1!f!0!e)!2!=d | %152
x!1!c!2!d e3- | e!2!d!1!f !4!a3- | ae!2!c- c!4!dB | !3!A!2!E!4!c A,2 z!D.S.! :| %156
[K:C][M:2/4][Q:1/4=80] z4 | z2 z |:[M:2/4]S[Q:1/4=80]"^6." G | eB!4!d!1!c | B!2!A z !4!d | %161
 !1!cB z !4!g | !1!fe z G | eBdc | BA z !4!d | !1!cB z f/>B/ | c2 z :: G | (!4!g!1!f) z !4!d | %169
 !1!f!0!e z c | e!4!d z B | (!4!d!1!c) z e | !4!d!2!^c z !0!e | !4!g !1!f2 !4!d- | d c2 B | %175
 !1!c2 x!fine! :: e | e !1!c2 !3!A | !1!^GB z !4!d | B!1!^G z e | !4!d!1!c z e | f2 e2 | %182
 !4!d2 !1!c2 | B2 !3!A2 | !1!^GB z :: e | e !1!^G2 e | e !1!A2 e | e B2 e | e !1!c2 e | %190
 (!4!g!1!f)!4!d!0!B | ^G2 !2!A!1!c | B(!1!f e)!1!^G | !3!A2 z!D.S.! :|[M:3/8][Q:3/8=60] z3 | z2 |: %196
[M:3/8]S[Q:3/8=60]"^7." G |!3!x!2!EG | !1!cec | B!1!f!4!d/B/ |!1!xeG- | G!2!EG | !1!ce!4!g | %203
 !1!f!2!AB | c z :: G- | !1!f!2!^c!4!d | eB!1!c | !4!dGB |{/!4!d} c/>B/cG | !1!f3 | eB!1!c | %212
 !2!A!4!dB | c x!fine! :: !1!c | !2!A/!1!c/ !3!FA/c/ | !4!_B/!1!c/G/!1!c/!2!E/!1!c/ | %217
!3!x/!1!c/ G/c/!2!E/c/ | !3!F/!2!A/!1!c c | A/c/F/c/A/c/ | _B/c/G/c/E/c/ |x/c/!2!E/c/G/c/ | %222
 !4!F z :: !2!A | A/>A/AA | A/>A/AA | !2!A!4!d!1!f | e!3!^c!2!A | A/>A/AA | A/>A/AA | %230
 !3!!4
![Fd][Ge]!1!!4
![^Gd] | !2!!3
![A^c]2 !1!=c | A/c/F/c/A/c/ | _B/c/G/c/E/c/ | %234
 !3!C/c/G/c/E/c/ | !3!F/A/cc | A/c/F/c/A/c/ | !3!_B/!4!d/ x2 | !1!c/e/ z e | !1![Af] z!D.S.! :| %240
[M:4/4][Q:1/4=152] z8 | z8 |:[M:4/4][Q:1/4=152]"^8." z4 e4 | z4 f4 | x2 e4 c2 | z2 B2 !4!d4 | %246
 z4 e4 | z4 !1!f4 | x2 e2 x2 !3!^f2 | !4!g6 x2 :: z4 !4!!1![df]4 | z4 [ce]4 | z4 [df]4 | %253
 z4 e2 !4!g2 | z2 !4
2
![^cg]4 !2
3
!^f2 | z2 !1![B=f]2 z2 [ce]2 | z2 !4![Ad]2 z2 B2 | %257
 c2 [Ge]2 [Ec]2 z2 :|[M:4/4][Q:1/4=132] z8 | z8 |:[M:4/4][Q:1/4=132]"^9." z4 e4 | z4 f4 | %262
 z2 e4 c2 | B2 c^c d2 B2 | z2 c2 e4 | z2 B2 f4 | z2 e2 z2 ^f2 | x2 g2 G,2 G2 :: z4 f4 | z4 e4 | %270
 z2 d2 f4 | z2 c2 e4 | z2 g4 ^f2 | z2 =f4 e2 | z2 !4!d3 B!4!dB | c e2 c z4 :| %276
[M:4/4][Q:1/4=126] z8 | z4 z2 |:[M:4/4][Q:1/4=126]"^10." G2 | !4!g2 e2 c2 G2 |xD GB !4!d2 !1!f2 | %281
 ecGExGce | (!4!dB) GD !2!G,2 G2 | g2 e2 c2 G2 |!2!xD GB !4!d2 !1!f2 | e2 E,G F,!2!A G,B | %286
 Cc EG C2 :: G2 | (!4!ge) !2!^ce !1!Ac A,!4!g- | g!1!f!0!e!1!f !4!d2 B,d | Ce E!4!g Df Ce | %291
 B,!4!d !1!c!3!^f !4!g z !1!F,G | z G!1!ce !4!gggg |z!2!x!0!B!3!^c !0!e2 !4!d2 | %294
!3!xG!1!cex!4!d!1!fB |xcGe x4 :|[K:G][M:6/8][Q:3/8=100] z6 | z6 | %298
[K:G][M:6/8]S[Q:3/8=100]"^11."xBD !4!g3 | !3!f3 D2 f | g3 B!3!dB | !1!c!2!A!4!F !0!D!2!A!4!F | %302
xBD g3 | f6 |xB(!4!g e)!1!c!2!A |x!1!c!3!f !4![GBg]2 z!fine! |]x!1!A!3!d !2!f3 |xGB e3 | %308
x!1!A!2!^c e!4!ge | !3!d!2!f!0!e (!2!^c!3!d)B |x!1!A!3!d !2!f3 |x!1!^G!0!B !0!e3 | %312
x!0!=G!1!^c e!4!ac | !3!!2

![Fd]2 z"^Hr.5" d'2 z |!2!x!1!dDxdD |xdD!2!x!1!cD |xcDxcD |xcDxBD | %318
xBD!2!x!1!dD |!2!x!1!cD!4!x!2!AD |xBDxcD |xBD!3!x!1!AD |!2!x!1!dDxdD |xdD!2!x!1!^cD | %324
!2!x!1!=cDx!1!cD |xcDxBD |!2!x!1!dD!3!x!4!eD |!2!x!1!dD!2!x!1!^cD |!2!x!1!=cDxBD | %329
!3!x!1!AD- !2!d z2!D.S.! |][M:2/4][Q:1/4=76] z4 | z2 z |:[K:G][M:2/4][Q:1/4=76]"^12." !3!d | %333
 B!4!g!2!f!1!=f | e3 e | !1!d!4!e!1!d!4!c | !0
!B2 z !3!d | B!4!ge!3!d | !2!^c3 !2!c | %339
 !2!d!4!^d !0!e!2!^c | !3!d2 z :: d | !4!^de !1!=f!2!^f | !3!g!1!a !2!^a!3!b | !4!c'!1!a !3!b!2!g | %345
 !1!f!4!a !2!d z | !1!^D/!2!d/!1!E/d/ !1!^E/d/!3!F/d/ | !0!G/d/!1!A/d/ !1!^A/d/!3!B/d/ | %348
 !4!c/d/!1!A/d/ !3!B/d/G/d/ | !3!F/d/!1!A/d/ Dd | B!4!g!2!f!1!=f | e!4!a!2!^g!1!=g | %352
 !1!f!2!d e!2!f | !4!g!4!a !4!bG | !1!c!4!de!2!f | !4!g2 e!
2
!!1![Ac] | %356
 B/>G/!4!d- d/!1!c/!2!A/!4!F/ | G3 :|[K:C][M:2/4][Q:1/4=92] z4 | z4 |: %360
[M:2/4][Q:1/4=92]"^13." [Ge][Af][Ge]!4
!d | !1!cBcB | !2!A!1!cB!4!d | !1!ce !4!d2 | efe!4!d | %365
 cBce | !2!Af B!4!d | !1!c2 z2 | !4!d2 !1!f2 | e2 c2 | B2 !4!d2 | c2 e2 | !4!d2 !1!f2 | e3 !4!d- | %374
 d !1!c2 !3![c^f] | !4![Bg]2 z G | efed | cBcB | Ac Bd | ce d2 | efed | [Ec][Ge] !4![_Bg]2 | %382
 !4!g!1!f !4!d!0!B | c2 x2 :|[K:G][M:3/4][Q:1/4=108] z6 | z6 |: %386
[K:G][M:3/4][Q:1/4=92]"^Andante"[Q:1/4=108]"^14." B2 e2 B2 |{/!4!d} !2!!1
![Ac]2 [GB]2 z2 | %388
 B2 !4!f2 !3!A2 | A2 G2 x2 | B2 e2 B2 |{/d} c2 B2 e2- | e2 G2 !1!A2 |1 !1!!0![^DB]4 z2 :|2 %394
 [^DB]4 z2 |: z2 e2 e2 | e2 !2!d2 !1!c2 | B2 !1!=f2 eB | !4!d4 !1!c2 | !3!!1

![Ac]2 [Ac]2 [Ac]2 | %400
 [AB]4 [G-B]2 | [Ge]2 [Ge]2 [Ge]2 | !3!!4![F^d]2 !0!B4 | B2 e2 B2 |{/d} [Ac]2 [GB]2 z2 | B2 f2 A2 | %406
 A2 G2 x2 | B2 e2 B2 | !4!d2 !1!c2 z2 | B>e !4!g2 !4!f2 | [Ge]4 z2 :|[K:E][M:6/8][Q:3/8=108] z6 | %412
 z6 |:[K:E][M:6/8][Q:1/4=144]"^Allegro"[Q:3/8=108]"^15.\n" z2 z !1
![GB]3 | z2 z !3!!4
![Ac]3 | %415
 z2 z !1!!3!!0![DAB]3 | z2 z !1
![GB]3 |x!2!B,!3!E!1!xBe |x!2!E!3!A !4!cec |x!1!D!2!A B!4!fA | %420
 z2 z !1
![Ge]2 z ::x!4!d!1!c !0!B!4!d!1!f | (!1!f!0!e)!1!c !2!^A!1!cF | (B!4!d)F !0!B!4!d(!1!f | %424
 e)!1!c!2!^A F2 z |xB!3!f f3 |!1!xB!4!g g3 |!3!x!2!^A!1!c ecA | !0!B3 !1!B,2 z | z2 z !1
![GB]3 | %430
 z2 z !3!!4![Ac]3 | z2 z !3![AB]3 | z2 z [GBe]3 |xB,ExBe |xEA cec |xDA BeB | z2 z [Ge]2 z :| %437
[K:G][M:2/4][Q:1/4=66] z4 | z4 |[K:G][M:2/4][Q:1/4=80]"^Andantino"[Q:1/4=66]"^16." z !4!g2 !3!f | %440
 z (!4!g/e/) e!2!d | z c2 B | z !1!A/!4!F/ G2 | B2 B!1!d | !1!c2 !2!A2 | B2 ce | B2 !1!A z | %447
 z !4!g2 f | z (g/e/) ed | z c2 B | z A/F/ G2 | B2 c!4!d | !4!^de!1!f!3!g- | gB!1!c!4!F | G2 z2 || %455
!1!x!2!ddd |xeee |!2!x!4!ggg | g2 !2!f2 | e!4!aaa | !4!a2 z2 | e!4!aaa | !4!a2 !2!d!0!e | %463
 !2!f2 e!2!d | B!3!^de!1!f | !4!a!1!g B!1![G^c] | !1!d z z2 | !1!d2 d2 | !2!f2 e2 | [^ce]2 [ce]2 | %470
 !4!g2 !3!f2 | [cf]2 [cf]2 | !4!g2 !2!d'2 | !3![cf]2 !4![Bg]2 | !4!a2 !3!d!1!c | z g2 f | %476
 (6:4:6z/ (!2!g/!1!f/)(!4!a/!2!g/!0!e/) !0!e!2!d | z c2 B | z A/>F/ G2 | B2- B/B/!1!d | %480
 !2!!1![Bd]!2!!1![^A^c] !2!!1![=A=c]2 | B!4!d !1!ce | B2 !1!A2 | z g2 f | %484
 (9:8:8z/ (!2!g/4!1!f/4) (!4!a/4!2!g/4!1!f/4!2!g/4!0!e/4) e!2!d | z c2 B | z A/>F/ G2 | %487
 B2 !1!c!4!d | !4!^d!0!e (!2!g/!1!f/)(!4!a/!2!g/) | z B [Ac]F | G3 z |][K:C][M:2/4][Q:1/4=72] z4 | %492
 z4 |[M:2/4][Q:1/4=114]"^Allo moderato"[Q:1/4=72]"^17."x/c/E/G/ F/!2!A/E/G/ |x/c/E/G/ F/A/E/G/ | %495
 C/G/E/c/ G/e/c/e/ | (!4!g/!1!f/)!4!d/B/ G>B |x/c/E/G/ F/A/E/G/ |x/c/E/G/ F/A/E/G/ | %499
 F/!2!A/D/c/ G/B/F/!4!d/ | E/c/G/e/ x2 | c/e/G/c/ E/G/C/G/ | B,/f/G/d/ G,/f/G/B/ | %503
 c/e/G/c/ E/G/C/G/ | B,/f/G/d/ G,/f/G/B/ |x/e/G/c/ A/e/C/e/ | D/!3!^f/!2!A/c/ !2!E/!4!g/G/B/ | %507
 !3!C/!4!g/!2!A/!1!c/ A,/g/D/^f/ | G/g/D/B/ G,G |x/f/D/B/ G/f/G,/B/ |x/e/E/c/ G/e/C/c/ | %511
x/f/D/f/ G/f/B,/f/ |x/e/G/c/ E/c/C/e/ ||x/!4!g/ !1!E/!2!^c/ !1!A/!2!c/ A,/g/ | %514
x/^f/ A/d/ A/c/ D/f/ |x/=f/ G/B/ G/B/ G,/f/ | C/e/ G/c/ E/c/ C/e/ |x/e/E/c/ A/c/A,/e/ | %518
x/!4!d/F/A/ F/A/F,/d/ |x/c/E/G/ D/B/F/G/ | C/c/E/G/ C z |][M:4/4][Q:1/4=120] z8 | z4 | %523
[M:4/4][Q:1/4=120]"^18."x/!1!c/!0!e/!1!c/ !3!A2 ||S!2!x/!1!d/!0!e/d/ !3!B2x/!1!c/e/c/ !3!A2 | %525
x/B/e/B/ !1!^G2x/!1!c/e/c/ !2!A2 |x/!4!d/e/d/ ^G2x/!1!c/e/c/ !3!A2 |x/B/e/B/ ^G2x/c/e/c/ A2 | %528
x/d/e/d/ B2x/c/e/c/ A2 |x/d/e/d/ ^G2x/c/e/c/ A2 |x/B/!1!f/B/ !2!A2x/B/e/B/ ^G!4!d | %531
 !3!!1![Ac]2 z2!fine! |]x/!1!c/e/c/ !3!A2 |x/!1!c/!1!f/!1!c/ !3!A2x/!4!d/!1!f/d/ G2 | %534
x/c/e/c/ G2x/c/g/c/ G2 |x/!4!d/!1!f/d/ A2x/!1!c/e/c/ !2!A2 | z2 !2!!1![Bd]2x/B/!4!g/B/ G2 | %537
x/!1!c/!3!^f/c/ G2x/!4!d/!1!=f/d/ G2 |x/c/e/c/ G2x/c/e/c/ A2 |x/!2!A/!4!d/A/ !3!D2x/G/B/G/ !4!FG | %540
 !1![Ec]2z2x/c/e/c/ G2 |x/!3!d/!4!g/d/ G2x/d/g/d/ G2 | %542
x/!2!^c/!4!g/!2!c/ !1!A2x/!3!d/!1!f/!3!d/ !2!A2 |x/!1!d/!0!e/!1!d/ !2!_B2x/!3!^c/e/c/ A,e | %544
 !4!g2 !1!f2x/!4!d/f/d/ A2 |x/d/e/d/ ^G2x/!2!d/!0!e/!2!d/ !4!B2 | %546
x/!1!c/e/c/ !2!A2x/!1!^c/e/c/ !2!A2 |x/!2!A/!4!d/A/ A,2x/!3!A/!4!^d/A/ !2!B,2 | %548
 !1!!0![^Ge]4 E/G/e/G/ [Ge]2 | !1!^D/A/!4!^f/A/ [Af]2 D/A/f/A/ [Af]2 | %550
x/^G/e/G/ [Ge]2 E/!1!G/e/G/ [Ge]2 | ^D/A/^f/A/ [Af]2 D/A/f/A/ [Af]2 | [^Ge]4 E/G/e/G/ [Ge]2 | %553
 !1!^D/A/!4!^f/A/ [Af]2 D/A/f/A/ [Af]2 |x/^G/e/G/ [Ge]2 E/G/e/G/ [Ge]2 | %555
 ^D/A/^f/A/ [Af]2 D/A/f/A/ [Af]2 | [^Ge]2z2x/c/e/c/ A2!D.S.! |][K:G][M:6/8][Q:3/8=66] z6 | z6 |: %559
[K:G][M:6/8][Q:3/8=66]"^19." B3 !1!c3 | d3 !4!g3 | B3 c3 | d3 dd!4!^d | e3 d3 |1 ^c3 d3 | =c3 B3 | %566
 A3 !4!d!2!^c!1!=c :|2 ^c3 d2 !4!^d | e3{/!4!g} !2!fef | !4![Bg]3 z2 z!fine! |] A3 B3 | B3 c3 | %572
 B3 c3 | ^c3 d3 | !4!e3 d3 | !1!!3![cf]3 [Bg]3 | c3 B2{/d} c | B3 !1!A2 z | A3 B3 | [^GB]2 d c3 | %580
 B3 c3 | [^ce]3 d3 | d3 !4![Bb]2 !1!d | !1!c3 !3!!4![ca]2 !1!c | B3 !2!^c3 | %585
 !2!d3- d!1!^c!1!=c!D.C.! ||[K:D][M:2/4][Q:1/4=60] z4 | z4 | %588
[K:D][M:2/4]S[Q:1/4=60]"^20." (B/!2!d)(d/ !1!c/)e/!2!^A/c/ | B/d(d/ c/)e/^A/c/ | %590
 B/x/B/!2!d/ (!1!f/!0!e/)!1!c/e/ | d/B/^A/B/ c/A/F/ z/ | (B/d)(d/ c/)e/^A/c/ | %593
 (B/d)(d/ c/)e/^A/c/ | B/d/G/B/ E/!2!c/F/(!2!^A/ | !4!B/)!2!d/F/!4!B/ !1!B, z!fine! |] %596
!2!x/!1!c/!3!F/c/ F/c/^A/c/ |!4!x/d/!3!F/d/ F/d/B/d/ | !1!c/e/!2!^A/c/ !4!B/d/F/d/ | %599
 !4!B/d/F/d/ ^A/c/F/c/ |x/c/F/c/ F/c/^A/c/ | B/d/F/d/ F/d/B/d/ | c/e/^A/c/ B/d/G/e/ | %603
 !3!F/!1!f/!2!^A/!1!f/ Ff |x/!2!f/!1!A/!2!f/ !3!d/f/A/f/ | (!0!e/!4!g/)!0!B/g/ G/g/B/g/ | %606
 (!0!e/!4!g/)!2!c/g/ A/g/c/g/ |x/!4!g/!2!c/g/ !3!d/!2!f/!1!A/f/ | !0!G/e/!1!A/!2!c/ G/e/A/c/ | %609
 !3!F/!2!d/!1!A/d/ F/d/A/d/ | G/e/A/c/ G/e/A/c/ | F/!2!d/A/d/ F/d/D/d/ | %612
 !0!G/d/D/d/ !3!B/d/!0!G/d/ | !3!F/d/!1!A/d/ F/d/D/d/ | G/d/D/d/ B/d/G/d/ | F/d/A/d/ F/d/D/d/ | %616
 !0!G/!3!d/!0!e/!3!d/ !1!^G/d/e/d/ | A/d/e/d/ !2!^A/d/e/d/ | !4!B/d/e/d/ !1!A/d/e/d/ | %619
!1!x/d/ e!2!fe |!0!x/!1!c/ !0!e!4!aa | !2!F/!1!d/ !4!a/d/ !3!B/!2!d/ !1!f/!2!d/ | %622
 G/!4!e/ !1!g/e/ !1!A/!2!c/ e/c/ | !3!d/!2!f/!1!A/!3!d/ D z | d/f/!1!=c/e/ !3!B/!4!^d/!1!A/!0!B/ | %625
 G/e/B/e/ !2!E/!4!g/B/g/ | ^D/!3!f/B/f/ F/!4!a/B/a/ | F/a/B/a/ E/!4!g/B/g/ | E/g/B/g/ D/!1!f/B/f/ | %629
 G/e/B/e/ !3!F/!2!d/!4!B/d/ | !1!E/!2!c/G/c/ !3!^E/B/!1!^G/B/- | B/!2!^A/!1!c/A/ F z | %632
!>(!x/e/!0!B/e/!>)! !1!c/e/!0!B/e/ |!3!x/!2!^A/!0!e/!1!c/ A/c/A |!>!x/e/B/e/ c/e/B/e/ | %635
 !2!^A/F/(!1!f f/e/)!2!d/!1!c/!D.S.! |][K:C][M:6/8][Q:3/8=76] z6 | z6 | %638
[M:6/8][Q:1/4=116]"^Allegretto"[Q:3/8=76]"^21." c z2 B z2 | c z2 B z2 | c z2 e z2 | %641
 !4!g3 (g!1!f)!4!d | c z2 B z2 | c z2 B z2 | c z2 e z2 | !2!!1![Bd]G!1!_A !2!=A!3!_B!0!=B | %646
 c z2 B z2 | c z2 B z2 | c z2 e z2 | !4!g3- g!2!^f!1!=f | e3 g3 | !4!g3 !4!!1![df]3 | [ce]3 d2 B | %653
 cGe !1!c x2!fine! :: !1!d z2 !1!^c z2 | !1!d3 !1!g z2 | !4!e z2 !4!^d z2 | !0!e3 !4!g z2 | %658
 !1!f3 !4!g3 | e3 !1!g3 | !1!f3 e3 | !2!!1![Bd] z2 z2 z | !1!f3 !0!e3 | !1!f3 !1!^f3 | %664
 !1!g3 !1!^g3 | !1!g3 !1!^g3 | !1!a3 !4!b3 | !4!c'3 !2!d'3 | !1!!4![xe']3{/!4!g} !2!^f!0!e!2!f | %669
 !4!g!1!=f!4!d B2 z!D.C.! :|[K:G][M:2/4][Q:1/4=72] z4 | z4 | %672
[K:G][Q:1/4=114]"^Allo moderato"[Q:1/4=72]"^22." !2!b>(b !1!^a>)(!1!a | !2!b>)(!2!b !0!e>)(e | %674
 !3!f>)f !4!g>(!3!f | e>)(e !3!f>)(f | !4!g>)g !4!b>(!4!b | !4!a>)(!4!a !4!f>)(!4!f | %678
 !4!g>)(g e>)e- | e/!4!^d/!1!f/!4!d/ z !0!B | b>(b ^a>)(a | b>)(b e>)e | f>f g>f | e>e !4!f>!4!f | %684
 !4!g>(g !4!^g>)(g | !4!b>)!2!a !4!g>!3!f | e>B !4!g>!3!!4![Af] | [Ge]2 z2 | !4!f>(f !4!a>)(a | %689
 !4!g>)(g e>)e | !4!^d>d !2!f>(f | e>)e !4!g>g | f>f !4!a>a | !4!g>g !1!f>f | !0!e>e !1!f>f | %695
 !4!^d2 z (!0!B/>!2!b/) | !2!b>(b !1!^a>)(a | b>)(b e>)e | f>(f g>)(f | e>)e f>f | g>g b>b | %701
 a>a f>f | g>g e>e- | e/!4!^d/!1!f/!4!d/ z !0!B | b>(b ^a>)(a | b>)b e>e | f>f g>(f | e>)e !3!f>f | %708
 !3!g>g !4!^g>g | !4!a>a !4!c'>c' | e>e !3!f>!4!^d | e>B e>B | !4!f>B !4!g>!4!f | e>B e>B | %714
 !4!f>B !4!g>!4!f |x>B e>!1!B, | E,/!2!E/G e>!1!B, | z/ E/G e>!1!B, | z/ E/G e>B, | E,4 |] %720
[K:A][M:2/4][Q:1/4=60] z4 | z4 |[K:A][M:2/4][Q:1/4=92]"^Andantino"[Q:1/4=60]"^23.\n" z2 !0!e!1!a- | %723
 !1!a!1!g !4!b!0!e- | !0!e!1!a !4!c'!4!^b | !4!=b!1!g !1!a!4!b | !1!g!0!e !0!e(!1!a | %727
 !1!a)!1!g !4!b!0!e- | !0!e!1!a !4!c'!4!c'- | !4!c'!1!b !4!d'!4!g | !4!a z !4!gg | !4!g!4!a !3!ff | %732
 ^^fg !4!bb | !4!^a!4!=a !4!g!4!=g | !4!f2 !4!gg | !4!b!4!a !3!f!4!f | !4!a!4!g !4!b!0!e | %737
 !0!e!1!a !4!g!4!f | e2 ee | G/e/E/e/ G/e/B/e/ | !3!A/e/!2!E/e/ !3!A/e/=c/e/ | %741
 !0!B/!0!e/!4!d/e/ !1!=c/e/!3!A/e/ | !1!G/B/!2!E ee |x/e/ !1!G/e/ !0!B/e/!1!d/e/ | %744
 !1!=c/e/E/e/ c/!0!e/!4!e/!0!e/ | d/e/!0!B/e/ !1!=c/e/!1!A/!4!^d/ | !1!G/!0!e/e/e/ e!1!a- | %747
 !1!a!1!g !4!b!0!e- | !0!e!1!a c'^b | =bg ab | ge ea- | a2 be- | ea c'c'- | c'b d'g | a z z2 |] %755
[K:F][M:4/4][Q:1/4=120] z8 | z8 | %757
[K:F][M:4/4][Q:1/4=114]"^Allo moderato"[Q:1/4=120]"^24.\n"x/!4!d/!1!f/!4!d/!2!x/d/f/d/ z2 f2 | %758
 f4 !4!d2 z2 | z/ d/f/d/x/d/f/d/- d2 f2 | [df]4 !0!e2 z2 | %761
 A,/^c/e/c/ A/c/e/-c/- [ce]2 !4!!1![eg]2 | A,/!3!d/!1!f/!3!d/ !2!A/d/f/-d/- [df]2 !2!!1![fa]2- | %763
 [fa]2 !4!!1![eg]4 !3!!1![df]2 | !2!!0![A,^ce]2 !1!!4![Aa]>a [Aa]2 A,2 | %765
x/d/f/d/x/d/f/-d/- [df]2 f2 | f4 d2 z2 |x/d/f/d/x/d/f/d/- d2 f2 | [df]4 e2 z2 | %769
x/^c/e/c/x/c/e/-c/- [ce]2 [eg]2 |x/d/f/d/x/d/f/-d/- [df]2 [fa]2- | %771
 [fa]2 !3!!1![eg]2 z2 !3!!0![^ce]2 | !4!!1![df]2 !2!A/d/f/d/ D2 z2!fine! |] %773
x/!3!^c/e/c/ !2!A/c/e/c/ z2 !2!!1![ca]2 | !3!!4![d=b]4 !3!!0![de]4 | %775
x/!2!^c/!0!e/c/ !3!A/c/e/c/ z2 [ca]2 | [d=b]4 [de]4 |x/!2!^c/!0!e/c/ !3!A/c/e/-c/- e2 !1!a2 | %778
 A,/!4!d/!2!f/!4!d/ !3!A/d/f/-d/- [df]2 !1!a2 |x/!0!=B/!1!^g/!0!B/ !3!d/B/g/B/ d2 !2!!4![^Gd=b]2 | %780
 !2!!1![^ca]2 z2 z4 |x/!3!d/!4!g/d/ G/d/g/-d/- [dg]4 |x/!2!^c/!4!g/!2!c/ A/c/g/-c/- g4 | %783
x/d/g/d/ G/d/g/-d/- [dg]4 |x/^c/g/c/ A/c/g/-c/- g4!D.C.! |][K:D][M:6/8][Q:3/8=40] z6 | z6 |: %787
[K:D][M:6/8][Q:1/4=50]"^Andante cantabile\nLa 6\ne\n Corde en Ré\n"[Q:3/8=40]"^25." [Fd]2 [Fd] !0!e>!2!fe | %788
 !3!!2![Fd] z/"^harm."!8va(! a/d'/e'/ f'd'a'!8va)! | !1![ce]2 e !2!d>!4!e!2!d | %790
 !2!c z/"^harm."!8va(! a/c'/d'/ e'c'a!8va)! | [Fd]2 [Fd] !2![Gce]>!3!fe | %792
 !2!d z/"^harm."!8va(! c'/d'/e'/ f'd'b!8va)! | !4!c2 c !0!e>!4!d!0!B | %794
 A z"^harm."!8va(! [c'e'] a'!8va)! z2 :: !1!!0![ce]2 [ce] !0![ce]>!2!f!0!e | %796
 !3!!2![Fd] z/"^harm."!8va(! a/d'/e'/ f'/c'/d'/f'/a'!8va)! | !1![ce]2 [ce] !4!a!2!ge | %798
 !3!!2![Fd]/!8va(! a/b/c'/d'/e'/ f'/c'/d'/f'/a'!8va)! | !3!f2 f{/!4!g} !3!f>!0!e!3!f | %800
 !4!g/"^harm."!8va(! d'/c'/d'/e'/f'/ g'/d'/g'/b'/d''!8va)! | !1!!2![Af]2 f !0!e>!3!f!0!e | %802
 !3!!2![Fd]"^harm."!8va(! f'/d'/ a/f/ d3!8va)! :| %803
V:2
 x8 | x8 |:[M:4/4] x8 | x8 | x8 | x8 | x8 | x8 | x8 | x8 :: x8 | x8 | x8 | x8 | x8 | x8 | x8 | %17
 x8 :|[M:3/4] x6 | x6 |[M:3/4] x6 | x6 | x6 | x6 | x6 | x6 | x6 | x6 | x6 | x6 | x6 | x6 | x6 | %33
 x6 | x6 | x6 | x6 | x6 | x6 | x6 | x6 | x6 | x6 | x6 | x6 | x6 | x6 | x6 | x6 | x6 | x6 | x6 | %52
 x6 | x6 | x6 | x6 | x6 | !3!C2 D2 !2!E2 | !3!F4 G2 | !3!C4 x2 |][M:4/4] x8 | x8 | x8 | x8 | x8 | %65
 x8 | x8 | x8 | x8 | x8 | x8 | x8 | x8 | x8 | x8 | x8 | x8 | x8 | x8 | x8 | x8 | x8 | x8 | x8 | %84
 x8 | x8 |][K:Eb][M:3/4] x6 | x4 |:[M:3/4] x2 | x6 | x6 | x6 | x6 | x6 | x6 | x6 | x4 :: x2 | x6 | %99
 x6 | x6 | x6 | x6 | x6 | x6 | x6 | x6 | x6 | x6 | x6 | x6 | x6 | x6 | x6 :|[K:C][M:6/8] x6 | x6 |: %116
[M:6/8] A,6 | D6 | E3 E,3 | A,6 | A,6 | D6 | E6 | x6 :: E6- | E6 | E,6 | A,6 | D3 G3 | C3 F3 | %130
 D3 E3 | A,3 x3 ::[K:A] A,6 | E,6 | E,6 | E,6 | A,6 | E,6 | E,6 | A,3 x3 :: E,6 | E,6 | E,6- | %143
 E,6 | E,6 | E,6 | E,6 | !2!E6 | A,6 | E,6 | A,6 | E,6 | A,6 | D6 | !1!E3 E,3 | A,3 x3 :| %156
[K:C][M:2/4] x4 | x3 |:[M:2/4] x | !3!C4 | z2 !3!F2 | x2 G2 | x2 !3!C2- | C4 | x2 !3!F2 | %165
 z2 !0!G2 | z G C :: x | z2 G2 | z2 G2 | z2 G2 | z2 C2 | z2 A,2 | D2 !3!F2 | G2 !3!G,2 | !4!C2 C :: %176
 z | z2 A,2 | x2 !2!E2 | z2 E,2 | z2 A,2 | z !2!A z G | z !3!F z !2!E | z D z !1!^D | !2!E2 E, :: %185
 z | z2 D2 | z2 !3!C2 | z2 !3!^G,2 | z2 A,2 | D4 | z !2!E !3!F2 | D2 !2!E2 | A,!2!EA, :| %194
[M:3/8] x3 | x2 |:[M:3/8] x | C3- | C3 | G3 | c3 | !3!C3- | C3 | D2 G | C2 :: x | G3- | G3 | %208
 !3!F3 | !2!E2 z | !3!G,A,!2!B, | !3!CD!2!E | !3!F2 G | C z :: x | AFA | _BGE | C3 | F2 x | %219
 !2!A!3!F!2!A | !4!_B!0!G!2!E | !3!C3 | x2 :: x | A,3 | A,3- | A,3 | [A,A]3 | A,3 | A,3- | A,3 | %231
 A,2 z | !2!A!3!F!2!A | !4!_B!0!G!2!E | C2 x | F2 x | AFA | _BG[Bd] | c!3!C!4!_B | !3!F x :| %240
[M:4/4] x8 | x8 |:[M:4/4] C8 | D8 | C4 E4 | G6 G2 | C8 | !3!G,8 | !3!C4 D4 | z2 G2 !2!G,2 x2 :: %250
 !2!B,8 | C8 | B,8 | C8 | A,4 D4 | G4 !2!A4 | !3!F4 G4 | C6 x2 :|[M:4/4] x8 | x8 |:[M:4/4] C8 | %261
 D8 | C4 E4 | z G3- G G2 G | C8 | G,8 | C4 D4 | G4 x4 :: B,8 | C8 | B,8 | C8 | A,4 D4 | G4 A4 | %274
 F4 x4 | z2 G2 C2 z2 :|[M:4/4] x8 | x6 |:[M:4/4] x2 | gc eG cE GC | !2!B,4 x4 | x4 C4 | x8 | %283
 gc eG cE GD | B,4 dG fG | ec E,2 !1!F,2 !3!G,2 | !4!C2 !2!E2 x2 :: x2 | x2 x2 A2 A,2 | D6 !2!B,2 | %290
 C2 E2 D2 C2 | B,2 [A,c]2 [G,B] x F,2 | E,8 | !1!F,4 x4 | G,4 !3!G,4 | !4!C4 C4 :|[K:G][M:6/8] x6 | %297
 x6 |[K:G][M:6/8] G6 |x!2!A!1!c x3 |xDG x3 | x6 | G3 x3 |xAcxcA | G3 x3 | D3 x3 |] D6 | D6 | D6- | %309
 D6 | D6 | D6 | D6 | x6 | B3 B3 | B3 A3 | A3 A3 | A3 G3 | G3 B3 | A3 F3 | G3 A3 | G3 F3 | B3 B3 | %323
 B3 ^A3 | A3 A3 | A3 G3 | B3 c3 | B3 ^A3 | A3 !2!G3 | F3 D x2 |][M:2/4] x4 | x3 |:[K:G][M:2/4] z | %333
 G4 | z !1!c!2!AG | !2!F4 | !0!GD G2 | G4 | z !3!_B!1!AG | !3!F2 !0!G!1!A | !0!D2 D :: z | D4- | %343
 D4 | D2 D2 | D3 D | ^DE ^EF | GA ^AB | cA BG | FA D2 | G4 | !3!c4 | D2 !1!^c!1!=c | B!1!A G!3!=F | %354
 !2!ED!3!^C!3!=C | !1!B,2 x2 | D2 D z | z D !2!G, :|[K:C][M:2/4] x4 | x4 |:[M:2/4] C2 z !3!F | %361
 !2!EDEG | !3!F!2!AG!3!F | E!3!C !2!B,2 | C2 z2 | EDEC | !4!FD G!3!F | !2!EG C2 | !2!B,2 D2 | %369
 !3!C2 F2 | D2 !3!F2 | E2 !3!C2 | !2!B,2 D2 | C2 !2!B,2 | A,2 D2 | x4 | CAGF | EDEG | FA GF | %379
 EC B,G | C2 z2 | x2 z !2!E | !3![FA]3 G | C2 [CE] z :|[K:G][M:3/4] x6 | x6 |:[K:G][M:3/4] E,6 | %387
 E,4 !2!E2 | !1!^D6 | !2!E4 z2 | E,6 | E,4 z2 | !2!C6 |1 z !2!B,2 A, !3!G,!2!F, :|2 z2 B,2 A,2 |: %395
 !2!^G,6 | A,6 | D4 x2 | A,6 | A,2 !4!C2 !2!E2 | !1!^D2 !2!B,2 !3!E!0!=D | C2 B,2 !1!^A,2 | %402
 !1!B,2 z2 !2!A2 | E,6- | E,4 E2 | ^D6 | E4 z2 | E,6 | A,4 x2 | !2!G,4 x2 | !3!E2 E,2 x2 :| %411
[K:E][M:6/8] x6 | x6 |:[K:E][M:6/8] E,6 | A,6 | !2!B,6 | !3!E6 | E,6 | A,6 | !3!B,6 | %420
 E,3 !3!E2 x :: F6- | F6- | F6- | F2 x4 | !1!D6 | !1!E6 | F6 | x6 | E,6 | A,6 | !2!B,3 !1!D3 | %432
 !3!E6 | E,6 | A,6 | B,6 | E,3 E2 x :|[K:G][M:2/4] x4 | x4 |[K:G][M:2/4] [GB]2 !2!!1![Ac]2 | %440
 [GB]2 !3!!1![FA]2 | !2![EG]2 D2 | !2!C2 !1!B,D | GD G!2!B | !2!AD !4!FD | !0!G!3!=F EC | %446
 DG !3!FD | [GB]2 [Ac]2 | [GB]2 [FA]2 | E2 D2 | C2 B,D | z G/=F/ ED | !2!C4 | D3 x | %454
 !1!B,D !2!G,G || !3![FA]4 | [GB]4 | !1![A^c]4 | D4 | G4 | !2!F4 | !1![G^c]4 | !3!F3 x | %463
 z !0!!1![DA][EG][FA] | G4- | G3 A, | !4!!2![DF]!0!DDD | !2!F!0!DFD |xDDD | GDGD |x!0!DDD | ADAD | %472
 [GB]D[GB]D | ADGD | !3!!1![FA]D- D2 | [GB]2 [Ac]2 | [GB]2 !3!!1![FA]2 | E2 D2 | C2 B,D | %479
 z/ !2!G,/!1!B,/D/ G>D | D2- D/D/!4!F/D/ | G!3!=F !2!E!3
!C | D2 x2 | [GB]2 [Ac]2 | %484
 [GB]2 !3!!1![FA]2 | G4 | C2 B,D | G!3!=F !2!E!0!D | !2!C2 z2 | D3 x | B,D G, x |][K:C][M:2/4] x4 | %492
 x4 |[M:2/4] !3!C4 | C4 | CE G2- | G2 z/ (F/D) | C4 | C4 | !4!FD G!3!F | EG C z | cG EC | %502
 !2!B,2 !3!G,G | cG EC | B,2 G,2 | !3!C3 C | D2 E2 | C2 A,D | GD !2!G,2 | !3!G,3 G, | !3!C3 C | %511
 !2!B,3 B, | C3 C || A,3 A, | D3 D | G,3 G, | !4!CGEC | A,3 A, | !1!F,3 F, | !3!G,4 | !3!C2 x2 |] %521
[M:4/4] x8 | x4 |[M:4/4] A,4 || ^G,4 A,4 | D4 !3!C4 | !2!B,4 A,4 | E,4 A,4 | ^G,4 A,4 | B,4 C4 | %530
 D4 !2!E4- | [A,E]2 x2 |] A,4 | A,4 !2!B,4 | C4 E4 | !3!F4 !4!^F4 | !3!G4 !2!G,4 | A,4 !2!B,4 | %538
 C4 A,4 | !1!F,4 G,4 | !3!C2 x2 C4 | B,4 !1!_B,4 | A,4 D4 | !4!G4 !2!A4 | D4 D4 | E4 !3!^G,4 | %546
 A,4 !3!G,4 | !1!^F,4 !1!=F,4 | E,8- | x2 !2!B,2 ^D2 B,2 | E,8- | E,8 | E,8- | E,8 | E,8- | E,8 | %556
 E,2 E2 A,4 |][K:G][M:6/8] x6 | x6 |:[K:G][M:6/8] !3!G,3 A,3 | !1!B,6 | !2!G,3 A,3 | !1!B,6 | %563
 !2!C3 !1!B,3 |1 !1!^A,3 !2!B,3 | A,3 !3!G,3 | !1!F,3 x3 :|2 !1!^A,3 B,3 | !3!C3 x3 | %569
 GD!1!B, !2!G,2 z |] FDD GDD | ^GDD ADD | GDD ADD | ^ADD BDD | !3!cDD !2!BDD | !2!ADD GDD | %576
 ADD GDA | GDD !3!FDD | FDD GDD | z =F2 ADD | GDD ADD | ^ADD BDD | BDD GDB | %583
 !2!A!0!D!0!D !1!F!0!D!2!A | GDD GDD | !3!F!0!DD D3 ||[K:D][M:2/4] x4 | x4 |[K:D][M:2/4] z !3!F3 | %589
 z !3!F3 | z/ !3!F3/2- F2- | F2 x2 | z F3 | z F3 | z G!1!E!3!F | B!3!F x2 |] ^A3 A | B3 B | c2 BF | %599
 B2 ^A2 | ^A3 A | B2 F2- | F4 | F2 F2 | D4- | D4- | D4 | D4 | GA GA | FA FA | GA GA | FAFD | %612
 GD BG | FA FD | GD BG | FA FD | G2 ^G2 | A2 ^A2 | B2 A2 | ^G4 | G4 | F2 B2 | G2 A2 | dA x2 | %624
 d=c BA | G2 E2 | !1!^D2 !2!F2 | F2 !2!E2 | E2 D2 | G2 F2 | E2 ^E2 | !3!F2 x F | G4 | F7/2 F/ | %634
 G4 | ^A2 x2 |][K:C][M:6/8] x6 | x6 |[M:6/8] !3!C z2 !3!G, z2 | C z2 G, z2 | !3!C z2 C z2 | %641
 !1!B,3 z2 z | C z2 G, z2 | C z2 !4!D z2 | !2!E z2 C z2 | !3!G z2 z2 z | C z2 G, z2 | C z2 G, z2 | %648
 !3!C z2 C z2 | !1!B,3 z2 z | !3!C3 !2!!3![E_B]3 | !3!F3- FDF | x3 !2!!3![G,F]3 | [CE]3- [CE] z2 :: %654
 !2!B!0!GG !2!^A!0!GG | !2!B!0!GG gGG | !3!c!0!GG !3!B!0!GG | cGG gGG | !3!dGG BGG | cGG !3!eGG | %660
 !3!dGG cGG | z !0!GG !0!G{/!4!B}!2!A!0!G | !3!d!0!GG !2!^cGG | !3!dGG !3!^dGG |!3!xGGxGG | %665
!3!xGGxGG | !2!fGG !2!fGG | !1!e!0!GG BGG | c!0!G!0!G !1![G-c]3 | [GB]3 z G!3!F :|[K:G][M:2/4] x4 | %671
 x4 |[K:G] E,4- | E,4 | x4 | x4 | x4 | x4 | x4 | x4 | E,4- | E,4 | x4 | x4 | x4 | x4 | x4 | x4 | %688
 x4 | x4 | x4 | x4 | x4 | x4 | x4 | x4 | E,4- | E,4 | x4 | x4 | x4 | x4 | x4 | x4 | E,4- | E,4 | %706
 x4 | x4 | x4 | x4 | x4 | x4 | x4 | x4 | x4 | x4 | x4 | x4 | x4 | x4 |][K:A][M:2/4] x4 | x4 | %722
[K:A][M:2/4] A,4 | E,4 | A,4 | E,4- | E,2 A,2 | E,4 | A,4 | D2 x !1!E | A,2 !1!EE | %731
 !2!^E!2!F !1!^DD | E2 !2!GG | !2!=G!2!F !1!E!2!E | !1!^DB, !1!E!2!^E | !2!G!2!F !1!^D!2!D | %736
 !3!F!1!E !2!G2 | x A, !2!B,!1!^D | !2!EE, z2 | E,4- | E,4- | E,4 | G2 z2 | E,4- | E,4- | E,4 | %746
 x2 A,2 | E,4 | A,4 | E,4 | z2 A,2 | E,4 | A,4 | D3 E | A, x3 |][K:F][M:4/4] x8 | x8 | %757
[K:F][M:4/4] D4 D4- | D4 x2 z2 | D4 D4 | A,2 x6 | A,2 A2 A,4 | A,2 A2 A,4 | A,2 !2!^C2 D4 | x8 | %765
 D4 D4- | D4 z2 x2 | D4 D4 | A,2 x6 | A,4 A,4 | D4 D4 | x8 | D2 x6 |] A,4 A,4- | A,8 | A,4 A,4- | %776
 A,8 | A,4 A,4 | A,2 A2 A,4 | A,4 x4 | !3!A2 A,2 A,2 A,2 | B,6 B,2 | A,6 A,2 | B,6 B,2 | A,6 A,2 |] %785
[K:D][M:6/8] x6 | x6 |:[K:D][M:6/8] D,3 !1![A,Gc]3 | %788
 D, x/!8va(! !5!A/!5!d/!/3!A/ !4!d!5!d!/3!d!8va)! | [A,G]2 [A,G] [A,F]2 [A,F] | %790
 !1![A,E] x/!8va(! !5!A/!4!A/!5!d/ !/3!A!4!A!5!A!8va)! | D,3 A,2 !1!^A, | %792
 !1!!3![B,F] x/!8va(! !4!A/!5!d/!/3!A/ !4!d!5!d!12!b!8va)! | !2!!3![EA]3 !2!!1![E,^G]3 | %794
 A, x!8va(! !9!!12![Ae'] !/3!d!8va)! x2 :: [A,G]2 [A,G] [A,-G]3 | %796
 A, x/!8va(! !5!A/!5!d/!/3!A/ !4!d/!4!A/!5!d/!4!d/!/3!d!8va)! | [A,G]2 [A,G] [A,Gc]3 | %798
 D,/!8va(! !5!A/!12!b/!4!A/!5!d/!/3!A/ !4!d/!4!A/!5!d/!4!d/!/3!d!8va)! | z DD x3 | %800
 [GB]/!8va(! !5!d/!4!A/!5!d/!/3!A/!4!d/ !5!g/!5!d/!5!g/!5!b/!/3!g!8va)! | z A,2 z3 | %802
 D,!8va(! !4!d/!5!d/ !5!A/!4!D/ !5!D3!8va)! :| %803
V:3
 x8 | x8 |:[M:4/4] x8 | x8 | x8 | x8 | x8 | x8 | x8 | x8 :: x8 | x8 | x8 | x8 | x8 | x8 | x8 | %17
 x8 :|[M:3/4] x6 | x6 |[M:3/4] x6 | x6 | x6 | x6 | x6 | x6 | x6 | x6 | x6 | x6 | x6 | x6 | x6 | %33
 x6 | x6 | x6 | x6 | x6 | x6 | x6 | x6 | x6 | x6 | x6 | x6 | x6 | x6 | x6 | x6 | x6 | x6 | x6 | %52
 x6 | x6 | x6 | x6 | x6 | x6 | x6 | x6 |][M:4/4] x8 | x8 | x8 | x8 | x8 | x8 | x8 | x8 | x8 | x8 | %70
 x8 | x8 | x8 | x8 | x8 | x8 | x8 | x8 | x8 | x8 | x8 | x8 | x8 | x8 | x8 | x8 |][K:Eb][M:3/4] x6 | %87
 x4 |:[M:3/4] x2 | x6 | x6 | x6 | x6 | x6 | x6 | x6 | x4 :: x2 | x6 | x6 | x6 | x6 | x6 | x6 | x6 | %105
 x6 | x6 | x6 | x6 | x6 | x6 | x6 | x6 | x6 :|[K:C][M:6/8] x6 | x6 |:[M:6/8] x6 | x6 | x6 | x6 | %120
 x6 | x6 | x6 | x6 :: x6 | x6 | x6 | x6 | x6 | x6 | x6 | x6 ::[K:A] x6 | x6 | x6 | x6 | x6 | x6 | %138
 x6 | x6 :: x6 | x6 | x6 | x6 | x6 | x6 | x6 | x6 | x6 | x6 | x6 | x6 | x6 | x6 | x6 | x6 :| %156
[K:C][M:2/4] x4 | x3 |:[M:2/4] x | x4 | x4 | x4 | x4 | x4 | x4 | x4 | x3 :: x | x4 | x4 | x4 | x4 | %172
 x4 | x4 | x4 | C!2![EG] z :: x | x4 | x4 | x4 | x4 | x4 | x4 | x4 | x3 :: x | x4 | x4 | x4 | x4 | %190
 x4 | x4 | x4 | x3 :|[M:3/8] x3 | x2 |:[M:3/8] x | x3 | x3 | x3 | x3 | x3 | x3 | x3 | x2 :: x | %206
 x3 | x3 | x3 | x3 | x3 | x3 | x3 | x2 :: x | x3 | x3 | x GE | x3 | x3 | x3 | x EG | x2 :: x | x3 | %225
 x3 | A3 | x3 | x3 | x3 | x3 | x3 | x3 | x3 | x GE | x3 | x3 | x3 | x3 | x2 :|[M:4/4] x8 | x8 |: %242
[M:4/4] x8 | x8 | x8 | x8 | x8 | x8 | x8 | x8 :: x8 | x8 | x8 | x8 | x8 | x8 | x8 | x8 :| %258
[M:4/4] x8 | x8 |:[M:4/4] x8 | x8 | x8 | x8 | x8 | x8 | x8 | x8 :: x8 | x8 | x8 | x8 | x8 | x8 | %274
 x8 | x8 :|[M:4/4] x8 | x6 |:[M:4/4] x2 | x8 | x8 | x8 | x8 | x8 | x8 | x8 | x6 :: x2 | x8 | x8 | %290
 x8 | x8 | x8 | x8 | x8 | x8 :|[K:G][M:6/8] x6 | x6 |[K:G][M:6/8] x6 | x6 | x6 | x6 | x6 | x3 D3 | %304
 x6 | x6 |] x6 | x6 | x6 | x6 | x6 | x6 | x6 | x6 | x6 | x6 | x6 | x6 | x6 | x6 | x6 | x6 | x6 | %323
 x6 | x6 | x6 | x6 | x6 | x6 | x6 |][M:2/4] x4 | x3 |:[K:G][M:2/4] x | x4 | x4 | x4 | x4 | x4 | %338
 x4 | x4 | x3 :: x | x4 | x4 | x4 | x4 | x4 | x4 | x4 | x4 | x4 | x4 | x4 | x4 | x4 | x4 | x4 | %357
 x3 :|[K:C][M:2/4] x4 | x4 |:[M:2/4] x4 | x4 | x4 | x4 | x4 | x4 | x4 | x4 | x4 | x4 | x4 | x4 | %372
 x4 | x4 | x4 | x4 | x4 | x4 | x4 | x4 | x4 | x4 | x4 | x4 :|[K:G][M:3/4] x6 | x6 |: %386
[K:G][M:3/4] x6 | x6 | x6 | x6 | x6 | x6 | x6 |1 x6 :|2 x6 |: x6 | x6 | x6 | x6 | x6 | x6 | x6 | %402
 x6 | x6 | x6 | x6 | x6 | x6 | x6 | x6 | x6 :|[K:E][M:6/8] x6 | x6 |:[K:E][M:6/8] x6 | x6 | x6 | %416
 x6 | x6 | x6 | x6 | x6 :: x6 | x6 | x6 | x6 | x6 | x6 | x6 | x6 | x6 | x6 | x6 | x6 | x6 | x6 | %435
 x6 | x6 :|[K:G][M:2/4] x4 | x4 |[K:G][M:2/4] x4 | x4 | x4 | x4 | x4 | x4 | x4 | x4 | x4 | x4 | %449
 x4 | x4 | x4 | x4 | x4 | x4 || x4 | x4 | x4 | x4 | x4 | x4 | x4 | x4 | x4 | x4 | x4 | x4 | x4 | %468
 x4 | x4 | x4 | x4 | x4 | x4 | x4 | x4 | x4 | x4 | x4 | x4 | x4 | x4 | x4 | x4 | x4 | E2 D2 | x4 | %487
 x4 | x4 | x4 | x4 |][K:C][M:2/4] x4 | x4 |[M:2/4] x4 | x4 | x4 | x4 | x4 | x4 | x4 | x4 | x4 | %502
 x4 | x4 | x4 | x4 | x4 | x4 | x4 | x4 | x4 | x4 | x4 || x4 | x4 | x4 | x4 | x4 | x4 | x4 | x4 |] %521
[M:4/4] x8 | x4 |[M:4/4] x4 || x8 | x8 | x8 | x8 | x8 | x8 | x8 | x4 |] x4 | x8 | x8 | x8 | x8 | %537
 x8 | x8 | x8 | x8 | x8 | x8 | x6 A,2 | x8 | x8 | x8 | x8 | x8 | E,8 | x8 | x8 | x8 | x8 | x8 | %555
 x8 | x8 |][K:G][M:6/8] x6 | x6 |:[K:G][M:6/8] x6 | x6 | x6 | x6 | x6 |1 x6 | x6 | x6 :|2 x6 | x6 | %569
 x6 |] x6 | x6 | x6 | x6 | x6 | x6 | x6 | x6 | x6 | x6 | x6 | x6 | x6 | x6 | x6 | x6 || %586
[K:D][M:2/4] x4 | x4 |[K:D][M:2/4] x4 | x4 | x4 | x4 | x4 | x4 | x4 | x4 |] x4 | x4 | x4 | x4 | %600
 x4 | x4 | x4 | x4 | x2 d2 | x4 | x4 | x4 | x4 | x4 | x4 | x4 | x4 | x4 | x4 | x4 | x4 | x4 | x4 | %619
 x4 | x4 | x4 | x4 | x4 | x4 | x4 | x4 | x4 | x4 | x4 | x4 | x4 | x4 | x4 | x4 | x4 |] %636
[K:C][M:6/8] x6 | x6 |[M:6/8] x6 | x6 | x6 | x6 | x6 | x6 | x6 | x6 | x6 | x6 | x6 | x6 | x6 | %651
 !2!A6 | x6 | x6 :: x6 | x6 | x6 | x6 | x6 | x6 | x6 | x6 | x6 | x6 | x6 | x6 | x6 | x6 | x6 | %669
 x6 :|[K:G][M:2/4] x4 | x4 |[K:G] x4 | x4 | x4 | x4 | x4 | x4 | x4 | x4 | x4 | x4 | x4 | x4 | x4 | %685
 x4 | x4 | x4 | x4 | x4 | x4 | x4 | x4 | x4 | x4 | x4 | x4 | x4 | x4 | x4 | x4 | x4 | x4 | x4 | %704
 x4 | x4 | x4 | x4 | x4 | x4 | x4 | x4 | x4 | x4 | x4 | x4 | x4 | x4 | x4 | x4 |][K:A][M:2/4] x4 | %721
 x4 |[K:A][M:2/4] x4 | x4 | x4 | x4 | x4 | x4 | x4 | x4 | x4 | x4 | x4 | x4 | x4 | x4 | x4 | x4 | %738
 x4 | x4 | x4 | x4 | x4 | x4 | x4 | x4 | x4 | x4 | x4 | x4 | x4 | x4 | x4 | x4 | x4 |] %755
[K:F][M:4/4] x8 | x8 |[K:F][M:4/4] x8 | x8 | x6 d2 | x4 !3!^c2 z2 | x8 | x8 | x8 | x8 | x8 | x8 | %767
 x6 d2 | x4 ^c2 z2 | x8 | x8 | x8 | x8 |] x8 | x8 | x8 | x8 | x8 | x8 | x8 | x8 | x8 | x8 | x8 | %784
 x8 |][K:D][M:6/8] x6 | x6 |:[K:D][M:6/8] x6 | x3/2!8va(! x9/2!8va)! | x6 | x3/2!8va(! x9/2!8va)! | %791
 x6 | x3/2!8va(! x9/2!8va)! | x6 | x2!8va(! x2!8va)! x2 :: x6 | x3/2!8va(! x9/2!8va)! | x6 | %798
 x/!8va(! x11/2!8va)! | x6 | x/!8va(! x11/2!8va)! | x6 | x!8va(! x5!8va)! :| %803
V:4
 x8 | x8 |:[M:4/4] x8 | x8 | x8 | x8 | x8 | x8 | x8 | x8 :: x8 | x8 | x8 | x8 | x8 | x8 | x8 | %17
 x8 :|[M:3/4] x6 | x6 |[M:3/4] x6 | x6 | x6 | x6 | x6 | x6 | x6 | x6 | x6 | x6 | x6 | x6 | x6 | %33
 x6 | x6 | x6 | x6 | x6 | x6 | x6 | x6 | x6 | x6 | x6 | x6 | x6 | x6 | x6 | x6 | x6 | x6 | x6 | %52
 x6 | x6 | x6 | x6 | x6 | x6 | x6 | x6 |][M:4/4] x8 | x8 | x8 | x8 | x8 | x8 | x8 | x8 | x8 | x8 | %70
 x8 | x8 | x8 | x8 | x8 | x8 | x8 | x8 | x8 | x8 | x8 | x8 | x8 | x8 | x8 | x8 |][K:Eb][M:3/4] x6 | %87
 x4 |:[M:3/4] x2 | x6 | x6 | x6 | x6 | x6 | x6 | x6 | x4 :: x2 | x6 | x6 | x6 | x6 | x6 | x6 | x6 | %105
 x6 | x6 | x6 | x6 | x6 | x6 | x6 | x6 | x6 :|[K:C][M:6/8] x6 | x6 |:[M:6/8] x6 | x6 | x6 | x6 | %120
 x6 | x6 | x6 | x6 :: x6 | x6 | x6 | x6 | x6 | x6 | x6 | x6 ::[K:A] x6 | x6 | x6 | x6 | x6 | x6 | %138
 x6 | x6 :: x6 | x6 | x6 | x6 | x6 | x6 | x6 | x6 | x6 | x6 | x6 | x6 | x6 | x6 | x6 | x6 :| %156
[K:C][M:2/4] x4 | x3 |:[M:2/4] x | x4 | x4 | x4 | x4 | x4 | x4 | x4 | x3 :: x | x4 | x4 | x4 | x4 | %172
 x4 | x4 | x4 | x3 :: x | x4 | x4 | x4 | x4 | x4 | x4 | x4 | x3 :: x | x4 | x4 | x4 | x4 | x4 | %191
 x4 | x4 | x3 :|[M:3/8] x3 | x2 |:[M:3/8] x | x3 | x3 | x3 | x3 | x3 | x3 | x3 | x2 :: x | x3 | %207
 x3 | x3 | x3 | x3 | x3 | x3 | x2 :: x | x3 | x3 | x3 | x3 | x3 | x3 | x3 | x2 :: x | x3 | x3 | %226
 x3 | x3 | x3 | x3 | x3 | x3 | x3 | x3 | x3 | x3 | x3 | x3 | x3 | x2 :|[M:4/4] x8 | x8 |: %242
[M:4/4] z2 G2 c4 | z2 G2 B4 | z2 c4 x2 | x8 | z2 G2 c2 G2 | z2 G2 B2 !4!d2 | z2 c2 z2 c2 | B6 z2 :: %250
 z2 G4 G2 | z2 G4 G2 | z2 G4 G2 | z2 G2 c4 | x6 d!1!=c | x8 | x8 | x8 :|[M:4/4] x8 | x8 |: %260
[M:4/4] z GcGxGcG | z GBGxGBG |xGxGxG cG | x8 | z GcGxGcG | z GBGxGdG | z G2 c2 c2 c | z BgB x4 :: %268
 z GdGxGdG | z GcGxGcG | z GdGxGdG | z GcGxGce |x^cxcxc d=c |xBxBxB cB |!3!x!2!AxA !0!G4 | x8 :| %276
[M:4/4] x8 | x6 |:[M:4/4] x2 | x8 | x8 | x8 | x8 | x8 | x8 | x8 | x6 :: x2 | x8 | x8 | x8 | x8 | %292
 x8 | x A3- A4 | x8 | x8 :|[K:G][M:6/8] x6 | x6 |[K:G][M:6/8] x6 | x6 | x6 | x6 | x6 | x6 | x6 | %305
 x6 |] x6 | x6 | x6 | x6 | x6 | x6 | x6 | x6 | x6 | x6 | x6 | x6 | x6 | x6 | x6 | x6 | x6 | x6 | %324
 x6 | x6 | x6 | x6 | x6 | x6 |][M:2/4] x4 | x3 |:[K:G][M:2/4] x | x4 | x4 | x4 | x4 | x4 | x4 | %339
 x4 |x!1!A x :: x | x4 | x4 | x4 | x4 | x4 | x4 | x4 | x4 | x4 | x4 | x4 | x4 | x4 |xG !3!C2 | x4 | %357
 x3 :|[K:C][M:2/4] x4 | x4 |:[M:2/4] x4 | x4 | x4 | x2 B,G |!3!x!2!AG!3!F | x4 | x4 | x4 | z G2 G | %369
 z G2 G | z G2 G | z G2 G | z G2 G | z G ^G2 | A3 x | z GGG | x4 | x4 | x4 | x4 |xAGF | x4 | x4 | %383
 EG x2 :|[K:G][M:3/4] x6 | x6 |:[K:G][M:3/4] G4 G2 | x6 | x6 | x6 | G4 G2 | A2 G4 | %392
 z2 !1!E2 !4!F2 |1 x6 :|2 x6 |: B6 | !1!c2 !3!B2 !3!A2 | z !3!A2 A !2![E^G]2 | %398
 z !2!E!1!^G!2!E !3!A2 | x6 | x6 | x6 | x6 | G4 G2 | x6 | x6 | x6 | G4 ^G2- | G^G !3!A2 A,2 | %409
 G2 B2 !1
!!3![^DA]2 | x6 :|[K:E][M:6/8] x6 | x6 |:[K:E][M:6/8] x6 | x6 | x6 | x6 | x3 G3 | x6 | %419
 x6 | x6 :: x6 | x6 | x6 | x6 | x6 | x6 | x6 | x6 | x6 | x6 | x6 | x6 | x3 G3 | x6 | x6 | x6 :| %437
[K:G][M:2/4] x4 | x4 |[K:G][M:2/4] x4 | x4 | x4 | x4 | x4 | x4 | x4 | x4 | x4 | x4 | G4 | x4 | x4 | %452
 x4 |xG!2!A !3!C | x4 || x4 | x4 | x4 | z !2!^c!3!d!1!A | z2 !1!^c2 | z !1!ddd | x4 | z !1!A2 z | %463
 x4 | x4 | x4 | x4 | x4 | !0!!1![G^c]4 | x4 | !2![A=c]4 | x4 | x4 | x4 | x4 | x4 | x4 | G4 | x4 | %479
 x4 | x4 | x4 |xG !3!FD | x4 | x4 | x4 | x4 | x4 | x4 |xG x C | x4 |][K:C][M:2/4] x4 | x4 | %493
[M:2/4] x !2!E!4!F!2!E | x EFE | x4 | x4 | x EFE | x !2!E!4!F!2!E | x4 | x4 | x4 | x4 | x4 | x4 | %505
 x G !2!A2 | x4 | x4 | x4 | x D G2 | x E G2 | x D G2 | x G E2 || x E A2 | x !1!A !2!A2 | x G G2 | %516
 x4 | x !2!E !3!A2 | x F F2 | x !2!E !0!D!4!F | x4 |][M:4/4] x8 | x4 |[M:4/4] x4 || x8 | x8 | x8 | %527
 x8 | x8 | x8 | x6 ^G2 | x4 |] x4 | x8 | x8 | x8 | x8 | x8 | x8 | x8 | x8 | x8 | x8 | x8 | %544
 g!2!^c !3!d2 x4 | x8 | x8 | x8 | z2 !2!B,2 !3!E2 B,2 | x8 | x2 !2!B,2 !3!E2 B,2 | x2 B,2 ^D2 B,2 | %552
 z2 !2!B,2 !3!E2 B,2 | x2 !2!B,2 ^D2 B,2 | x2 !2!B,2 !3!E2 B,2 | x2 B,2 ^D2 B,2 | x8 |] %557
[K:G][M:6/8] x6 | x6 |:[K:G][M:6/8]xGGxGG |!3!xGGxGG |xGGxGG |!3!xGG G3 |xGG!3!xGG |1 %564
!3!xGG!4!xDD- | D!2!E!4!F GDD |!2!xDD z2 z :|2!3!xGG !3!dG x |xG!1!c- [Dc]3 | x6 |] x3 x3 | x3 x3 | %572
 x3 x3 | x3 x3 | x3 x3 | x3 x3 | x3 x x2 | x3 x3 | x3 x3 | x3 x3 | x3 x3 | x6 | x3 x3 | x6 | %584
 x3 x3 | x6 ||[K:D][M:2/4] x4 | x4 |[K:D][M:2/4] x4 | x4 | x4 | x4 | x4 | x4 | x4 | x4 |] x F F2 | %597
 x F F2 | x ^A x2 | x4 | x F F2 | x F x B | c^A BG | x4 | x A2 A | x BGB | x cAc | x cdA | x4 | %609
 x4 | x4 | x4 | x4 | x4 | x4 | x4 | x4 | x4 | x4 | x e/d/ f/d/e/d/ | x e/c/ a/c/a/c/ | x4 | x4 | %623
 x4 | x4 | x4 | x4 | x4 | x4 | x4 | x4 | x4 | x BcB | x4 | x BcB | x4 |][K:C][M:6/8] x6 | x6 | %638
[M:6/8] !2!EGG !4!FGG | EGG FGG | !2!EGG cGG | !3!dGG G3 | EGG FGG | EGG !2!FGG | z GG cGG | x6 | %646
 EGG FGG | EGG FGG | !2!EGG cGG | !3!dGG G3 | z G!1!c!4!xcc |x!1!c!1!^c x3 | z GG!4!xG x | x6 :: %654
 x6 | x6 | x6 | x6 | x3 x3 | x3 x3 | x3 x3 | x6 | x3 x3 | x3 x3 | e6 | e6 | x3 x3 | x3 x3 | x6 | %669
 x6 :|[K:G][M:2/4] x4 | x4 |[K:G]x/G/Bx/G/B |x/G/Bx/G/B |x/!2!A/Bx/A/B |x/G/Bx/!1!^D/!0!B | %676
x/G/Bx/G/B |x/!2!F/!0!Bx/!1!^D/!0!B |x/!1!E/Bx/!2!C/!3!^A | !1!B,2 !3!B z |x/G/Bx/G/B |x/G/Bx/G/B | %682
x/A/Bx/A/B |x/G/Bx/^D/B |x/E/Bx/!1!E/!3!d |x/A,/!1!cx/A,/!2!A |x/!1!B,/Gx/!2!B,/!1!^D | %687
 z/ !2!B,/!3!E/!2!B,/ E, z |x/!1!^D/Bx/!1!F/B |x/!1!E/Bx/G/B |x/!2!F/!3!Bx/!1!A/!0!B | %691
x/G/Bx/!1!E/B |x/!1!^D/!0!Bx/!2!F/B |x/!2!E/!0!Bx/D/B |x/!2!C/Bx/!2!C/!3!^A | %695
 ^d/!1!B,/!3!B/!2!F/ B,2 |x/G/Bx/G/B |x/G/Bx/G/B |x/A/Bx/A/B |x/G/Bx/^D/B |x/G/Bx/G/B | %701
x/F/Bx/^D/B |x/E/Bx/C/^A | B,2 !3!B z |x/G/Bx/G/B |x/G/Bx/G/B |x/A/Bx/A/B |x/G/Bx/!1!^D/B | %708
x/!1!E/Bx/!1!E/!2!d |x/A,/!3!cx/A,/!2!A |x/!1!B,/Gx/!1!B,/!2!A |x/!2!E/Gx/E/G |x/!1!^D/!3!Ax/D/A | %713
x/!2!E/Gx/E/G |x/!1!^D/!3!Ax/D/A | e/!2!E/Gx/E/G |x>Bx/E/G | E,>Bx/E/G | E,>Bx/E/G | x4 |] %720
[K:A][M:2/4] x4 | x4 |[K:A][M:2/4] x2 e/!2!c/a/c/ | a/!3!d/g/!0!B/ b/G/e/!3!d/ | %724
 e/!3!d/a/!2!c/ c'/!3!e/^b/!3!^d/ | b/!3!=d/g/!0!B/ a/!2!c/b/!3!d/ | %726
 g/!0!B/e/!3!d/ e/!2!c/a/!2!c/ | a/!3!d/g/!0!B/ b/!2!G/e/!3!d/ | e/!3!d/a/!2!c/ c'/!3!e/c'/!1!^e/ | %729
 c'/!1!f/b/!1!f/ d'/!0!B/ g/!2!d/ | A,/!1!c/!1!A/ z/ g/B/ g/B/ |x/B/x/B/x/B/x/B/ | %732
 ^^f/B/ g/B/ b/B/x/B/ |x/B/x/B/x/B/ =g/B/ | f/!0!B/ !2!B,/B/ g/B/ g/B/ |x/B/x/B/x/B/x/B/ | %736
x/B/x/B/ G/!0!B/ !3!d/!0!B/ | !3!A/!2!c/ A,/!2!c/ B,/B/ ^D/!3!A/ | e/!1!G/ x z2 | GE GB | AEA=c | %741
 Bd =cA | x4 | x !2!E!1!G!3!B | !3!A!2!E A!3!=c | !2!B!1!G !2!A!2!=F | !2!E2 e/!2!c/ a/!2!c/ | %747
 a/!3!d/g/!0!B/ b/!2!G/e/!3!d/ | e/!3!d/a/!2!c/ c'/e/^b/^d/ | b/=d/g/B/ a/c/b/d/ | %750
 g/d/e/d/ e/c/a/c/ | a/d/g/B/ b/G/e/d/ | e/d/a/c/ c'/e/c'/^e/ | c'/f/b/f/ d'/B/g/d/ | a/c/A x2 |] %755
[K:F][M:4/4] x8 | x8 |[K:F][M:4/4] z2 A4 A2 | A4 !3!F2 A2 | z2 A4 x2 | z2 !2!A4 A2 | x8 | x8 | x8 | %764
 x8 | x2 A4 A2 | A4 F2 A2 | x2 A4 x2 | z2 A4 A2 | x2 A4 z2 | x2 A4 x2 | G4 !2!A4 | x8 |] x2 A2 x4 | %774
 z2 !2!^G2 !0!=B2 G2 | x2 A2 x4 | z2 ^G2 =B2 G2 | x2 A2 c4 | x8 | x2 d2 x4 | x8 | x2 G2 G4 | %782
 x2 !1!A2 [Ac]4 | x4 G4 | x2 A2 [Ac]4 |][K:D][M:6/8] x6 | x6 |:[K:D][M:6/8] x6 | %788
 x3/2!8va(! x9/2!8va)! | x6 | x3/2!8va(! x9/2!8va)! | x6 | x3/2!8va(! x9/2!8va)! | x6 | %794
 x2!8va(! x2!8va)! x2 :: x6 | x3/2!8va(! x9/2!8va)! | x6 | x/!8va(! x11/2!8va)! | %799
 !2!!1![A=c]2 [Ac] [DAc]3 | x/!8va(! x11/2!8va)! | x2 A ^G2 [=Gc] | x!8va(! x5!8va)! :| %803
V:5
 x8 | x8 |:[M:4/4] !2!C4 !2!B,2 !3!G,2 | !2!C4 !2!B,2 !3!G,2 | !2!C2 !2!D2 !1!E2 !1!G2 | %5
 !1!F2 !1!E2 !2!D2 !3!G,2 | !2!C4 !2!B,2 !3!G,2 | !2!C2 !1!E2 !2!D2 !2!B,2 | %8
 !3!A,2 !2!C2 !4!D,2 !1!^F2 | !1!G2 [!4!D,!3!G,!2!B,]2 !6!G,,2 x2 :: !1!G2 !3!G,2 !1!E2 !1!G2 | %11
 !1!F2 !3!G,2 !2!D2 !1!F2 | !1!E2 !3!G,2 !2!C2 !1!E2 | !2!D2 !2!B,2 !3!G,2 !4!F,2 | %14
 !4!E,2 !3!G,2 !2!C2 !4!E,2 | !4!F,2 !3!A,2 !4!D,2 !4!F,2 | !4!E,2 !3!G,2 !6!G,,2 !5!B,,2 | %17
 !5!C,2 [!3!G,!2!C!1!E]2 !5!C,2 x2 :|[M:3/4] x6 | x6 |[M:3/4] !3!G,2 !1!E2 !2!C2 | %21
 !2!C2 !2!B, !2!C !2!D2 | !3!G,2 !1!F2 !2!D2 | !2!D2 !2!C !2!D !1!E2 | !3!G,2 !2!C2 !1!E2 | %25
 !1!G2 !1!F2 !2!D !2!B, | !2!C2 !3!G,2 !1!E2 | !2!^C2 !2!D !2!=C !2!B, !3!A, | !3!G,2 !1!E2 !2!C2 | %29
 !2!C2 !2!B, !2!C !2!D2 | !3!G,2 !1!F2 !2!D2 | !2!D2 !2!C !2!D !1!E2 | !3!G,2 !2!C2 !1!E2 | %33
 !1!G2 !1!F2 !2!D2 | !2!C !3!G, !1!E2 !2!D !2!B, | !2!C2 !5!C,2 x2 | !2!B,2 !3!G,2 !2!D2 | %37
 !2!C4 !3!A,2 | !4!D,2 !3!A,2 !2!C2 | !2!B,4 !3!G,2 | !1!G2 !1!^F2 !1!=F2 | !1!E2 !2!C2 !3!A,2 | %42
 !2!B, !4!D, !2!D2 !2!C !3!A, | !3!G,2 !6!G,,2 x2 | !3!G,2 !2!B,2 !2!D2 | !3!G,2 !2!C2 !1!E2 | %46
 !3!G,2 !1!F2 !1!E2 | !2!D !2!^C !2!D !2!B, !3!G,2 | !3!G,2 !2!B, !2!C !2!D2 | %49
 !3!G,2 !2!C !2!D !1!E2 | !3!G,2 !2!D !1!F !1!E !2!C | !2!D4 !3!G,2 | !1!E2 !2!D2 !2!C2 | %53
 !2!B,2 !3!^G,2 !3!A,2 | !1!F2 !1!E2 !2!D2 | !2!C4 !2!B,2 | !3!G,2 !1!G2 !1!F2 | %57
 !1!E2 !2!B,2 !2!C2 | !2!D2 !3!A,2 !2!B,2 | !2!C4 x2 |][M:4/4] x8 | x8 | %62
 !5!C,2 !5!B,,2 !5!C,2 !4!E,2 | !3!G,2 !6!G,,2 !3!G,2 !4!F,2 | !4!E,2 !4!D,2 !5!C,2 !4!D,2 | %65
 !5!B,,2 !5!A,,2 !6!G,,2 !5!A,, !5!B,, | !5!C,2 !4!D,2 !4!E,2 !5!C,2 | %67
 !4!D,2 !4!E, !4!^F, !3!G, !3!A, !3!B, !3!G, | !4!E,2 !5!C,2 !5!A,,2 !4!D,2 | %69
 !6!G,,2 !3!G, !4!F, !4!E,2 !4!D,2 | !5!^C,2 !4!E,2 !5!A,,2 !5!B,, !5!C, | %71
 !4!D,2 !4!E,2 !4!F,2 !3!G, !3!A, | !3!_B,2 !3!G,2 !4!E,2 !3!A, !3!G, | %73
 !4!F,2 !4!E,2 !4!D,2 !5!C,2 | !5!B,,2 !4!D,2 !6!G,,2 !3!G, !4!F, | %75
 !4!E,2 !4!D,2 !5!C,2 !2!C !2!B, | !3!A, !3!G, !4!^F, !4!E, !4!D, !5!C, !5!B,, !5!A,, | %77
 !6!G,,2 !5!B,, !4!D, !3!G,2 !4!F,2 | !4!E,2 !4!D,2 !5!C,2 !4!D, !4!E, | %79
 !4!F,2 !3!G,2 !3!A,2 !3!G,2 | !4!^F,2 !4!E,2 !4!D,2 !4!E, !4!F, | !3!G,2 !3!A,2 !3!B,2 !3!A,2 | %82
 !3!^G,2 !4!^F,2 !4!E,2 !4!F, !3!G, | !3!A,2 !2!B,2 !2!C2 !2!B,2 | %84
 !3!A, !3!G, !4!F, !4!E, !4!D,2 !3!G,2 | !5!C,2 !2!C2 !5!C,2 x2 |][K:Eb][M:3/4] x6 | x4 |: %88
[M:3/4] !3!G,2 | !4!E,3/2 !4!D,/ !5!C,2 !2!C2 | !2!=B,3/2 !2!C/ !2!D2 !3!G,2 | %91
 !2!C3/2 !2!D/ !2!E !1!=E !1!F !1!^F | !1!G2 !3!G,2 !3!G,2 | !2!C3/2 !2!D/ !2!E2 !2!D3/2 !2!C/ | %94
 !3!B,3/2 !3!A,/ !3!G, !4!F, !4!E, !4!D, | !5!C,2 !3!A,2 !4!F,3/2 !4!D,/ | !4!E,2 x2 :: !3!B,2 | %98
 !1!G3/2 !1!F/ !1!=E2 !2!C2 | !1!A3/2 !1!G/ !1!F2 !2!E2 | !2!_D !2!C !2!D !1!A !1!F !2!D | %101
 !2!C2 !2!=B,2 !3!G,2 | !1!F3/2 !2!D/ !2!=B,2 !3!G,2 | !2!C3/2 !2!D/ !2!E !2!D !2!C !3!B, | %104
 !3!A, !3!G, !4!F, !4!E, !4!D, !5!C, | !3!G,2 !6!G,,2 !3!G,2 | !4!E,3/2 !4!D,/ !5!C,2 !2!C2 | %107
 !2!=B,3/2 !2!C/ !2!D2 !3!G,2 | !2!C3/2 !2!D/ !2!E !1!=E !1!F !1!^F | !1!G2 !3!G,2 !1!G3/2 !1!F/ | %110
 !1!=E !1!G !1!E !2!C !3!B, !3!G, | !4!F,3/2 !3!G,/ !3!A,2 !3!G, !4!^F, | %112
 !3!G,3/2 !2!C/ !2!E2 !2!D3/2 !2!=B,/ | !2!C2 !5!C,2 x2 :|[K:C][M:6/8] x6 | x6 |: %116
[M:6/8] !6!x !3!A, !2!B, !2!C !2!D !1!E | !5!x !2!D !1!E !1!F !2!D !2!B, | %118
 !5!x !3!^G, !2!B, x !1!E !2!D | !6!x !2!C !2!B, (!2!D !2!C) !2!B, | %120
 !6!x !3!A, !2!B, !2!C !2!D !1!E | !5!x !2!D !1!E !1!F !2!D !2!B, | %122
 !5!x !3!^G, !2!B, !3!A, !4!E, !2!C | !2!B, !3!^G, !1!E !6!E,,2 x :: %124
 !5!x !3!^G, !2!B, !1!E !2!D !2!B, | !2!C !3!A, !2!C !1!E !2!C !3!A, | %126
 x !3!^G, !2!B, !1!E !2!D !2!B, | !6!x !2!C !2!B, !3!A, !2!C !1!E | %128
 !5!x !1!F !1!F !4!x !2!B, !2!B, | !6!x !1!E !1!E !5!x !3!A, !3!A, | %130
 !5!x !2!B, !2!B, !5!x !3!^G, !3!G, | !6!x !3!A, !4!E, !5!A,,2 x ::[K:A] !6!x !2!C !3!A, !1!E3 | %133
 x !2!D !2!C !2!B,3 | x !2!C !2!B, !3!A, !2!B, !2!C | !2!B, !1!E !2!^D (!1!F !1!E) !2!=D | %136
 !6!x !2!C !2!D !1!E3 | x !2!D !2!C !2!B,3 | x !2!C !1!E !2!D !2!B, !3!G, | %139
 !6!x !3!A, !2!C !5!A,,2 x :: x !3!G, !2!B, !2!D3 | x !2!C !1!E !1!A3 | %142
 x !1!G !1!F !1!F !1!E !2!D | !2!C !2!D !2!^D !1!E !2!C !3!A, | x !3!G, !2!B, !2!D3 | %145
 x !2!C !1!E !1!A3- | !1!A !1!F !2!^D !2!B, !3!A, !4!F, | !5!x !3!G, !2!B, !1!E !2!D !2!B, | %148
 !6!x !2!C !3!A, !1!E3 | x !2!D !2!C !2!B,3 | !6!x !2!C !2!B, !3!A, !2!B, !2!C | %151
 !2!B, !1!E !2!^D (!1!F !1!E) !2!=D | !6!x !2!C !2!D !1!E3- | !1!E !2!D !1!F !1!A3- | %154
 !1!A !1!E !2!C- !2!C !2!D !2!B, | !3!A, !4!E, !2!C !5!A,,2 x :|[K:C][M:2/4] x4 | x2 x |: %158
[M:2/4] !3!G, | !1!E !2!B, !2!D !2!C | !2!B, !3!A, x !2!D | !2!C !2!B, x !1!G | !1!F !1!E x !3!G, | %163
 !1!E !2!B, !2!D !2!C | !2!B, !3!A, x !2!D | !2!C !2!B, x !1!F3/4 !2!B,/4 | !2!C2 x :: !3!G, | %168
 (!1!G !1!F) x !2!D | !1!F !1!E x !2!C | !1!E !2!D x !2!B, | (!2!D !2!C) x !1!E | %172
 !2!D !2!^C x !1!E | !1!G !1!F2 !2!D- | !2!D !2!C2 !2!B, | !2!C2 x :: !1!E | !1!E !2!C2 !3!A, | %178
 !3!^G, !2!B, x !2!D | !2!B, !3!^G, x !1!E | !2!D !2!C x !1!E | !1!F2 !1!E2 | !2!D2 !2!C2 | %183
 !2!B,2 !3!A,2 | !3!^G, !2!B, x :: !1!E | !1!E !3!^G,2 !1!E | !1!E !3!A,2 !1!E | !1!E !2!B,2 !1!E | %189
 !1!E !2!C2 !1!E | (!1!G !1!F) !2!D !2!B, | !3!^G,2 !3!A, !2!C | !2!B, (!1!F !1!E) !3!^G, | %193
 !3!A,2 x :|[M:3/8] x3 | x2 |:[M:3/8] !3!G, | !6!x !4!E, !3!G, | !2!C !1!E !2!C | %199
 !2!B, !1!F !2!D/ !2!B,/ | !3!x !1!E !3!G,- | !3!G, !4!E, !3!G, | !2!C !1!E !1!G | %203
 !1!F !3!A, !2!B, | !2!C x :: !3!G,- | !1!F !2!^C !2!D | !1!E !2!B, !2!C | !2!D !3!G, !2!B, | %209
{/!2!D} !2!C3/4 !2!B,/4 !2!C !3!G, | !1!F3 | !1!E !2!B, !2!C | !3!A, !2!D !2!B, | !2!C x :: !2!C | %215
 !3!A,/ !2!C/ !4!F, !3!A,/ !2!C/ | !3!_B,/ !2!C/ !3!G,/ !2!C/ !4!E,/ !2!C/ | %217
 !6!x/ !2!C/ !3!G,/ !2!C/ !4!E,/ !2!C/ | !4!F,/ !3!A,/ !2!C !2!C | %219
 !3!A,/ !2!C/ !4!F,/ !2!C/ !3!A,/ !2!C/ | !3!_B,/ !2!C/ !3!G,/ !2!C/ !4!E,/ !2!C/ | %221
 !6!x/ !2!C/ !4!E,/ !2!C/ !3!G,/ !2!C/ | !4!F, x :: !3!A, | !3!A,3/4 !3!A,/4 !3!A, !3!A, | %225
 !3!A,3/4 !3!A,/4 !3!A, !3!A, | !3!A, !2!D !1!F | !1!E !2!^C !3!A, | !3!A,3/4 !3!A,/4 !3!A, !3!A, | %229
 !3!A,3/4 !3!A,/4 !3!A, !3!A, | [!4!F,!2!D] [!3!G,!1!E] [!3!^G,!2!D] | [!3!A,!2!^C]2 !2!=C | %232
 !3!A,/ !2!C/ !4!F,/ !2!C/ !3!A,/ !2!C/ | !3!_B,/ !2!C/ !3!G,/ !2!C/ !4!E,/ !2!C/ | %234
 !5!C,/ !2!C/ !3!G,/ !2!C/ !4!E,/ !2!C/ | !4!F,/ !3!A,/ !2!C !2!C | %236
 !3!A,/ !2!C/ !4!F,/ !2!C/ !3!A,/ !2!C/ | !3!_B,/ !2!D/ x2 | !2!C/ !1!E/ x !1!E | [!3!A,!1!F] x :| %240
[M:4/4] x8 | x8 |:[M:4/4] x4 !1!E4 | x4 !1!F4 | x2 !1!E4 !2!C2 | x2 !2!B,2 !2!D4 | x4 !1!E4 | %247
 x4 !1!F4 | x2 !1!E2 x2 !1!^F2 | !1!G6 x2 :: x4 [!2!D!1!F]4 | x4 [!2!C!1!E]4 | x4 [!2!D!1!F]4 | %253
 x4 !1!E2 !1!G2 | x2 [!2!^C!1!G]4 !1!^F2 | x2 [!2!B,!1!=F]2 x2 [!2!C!1!E]2 | %256
 x2 [!3!A,!2!D]2 x2 !2!B,2 | !2!C2 [!3!G,!1!E]2 [!4!E,!2!C]2 x2 :|[M:4/4] x8 | x8 |: %260
[M:4/4] x4 !1!E4 | x4 !1!F4 | x2 !1!E4 !2!C2 | !2!B,2 !2!C !2!^C !2!D2 !2!B,2 | x2 !2!C2 !1!E4 | %265
 x2 !2!B,2 !1!F4 | x2 !1!E2 x2 !1!^F2 | x2 !1!G2 !6!G,,2 !3!G,2 :: x4 !1!F4 | x4 !1!E4 | %270
 x2 !2!D2 !1!F4 | x2 !2!C2 !1!E4 | x2 !1!G4 !1!^F2 | x2 !1!=F4 !1!E2 | x2 !2!D3 !2!B, !2!D !2!B, | %275
 !2!C !1!E2 !2!C x4 :|[M:4/4] x8 | x4 x2 |:[M:4/4] !3!G,2 | !1!G2 !1!E2 !2!C2 !3!G,2 | %280
 !6!x !4!D, !3!G, !2!B, !2!D2 !1!F2 | !1!E !2!C !3!G, !4!E, !6!x !3!G, !2!C !1!E | %282
 (!2!D !2!B,) !3!G, !4!D, !6!G,,2 !3!G,2 | !1!G2 !1!E2 !2!C2 !3!G,2 | %284
 !6!x !4!D, !3!G, !2!B, !2!D2 !1!F2 | !1!E2 x !3!G, x !3!A, x !2!B, | %286
 !5!C, !2!C !4!E, !3!G, !5!C,2 :: !3!G,2 | (!1!G !1!E) !2!^C !1!E !3!A, !2!C !5!A,, !1!G- | %289
 !1!G !1!F !1!E !1!F !2!D2 !5!B,, !2!D | !5!C, !1!E !4!E, !1!G !4!D, !1!F !5!C, !1!E | %291
 !5!B,, !2!D !2!C !1!^F !1!G x x !3!G, | x !3!G, !2!C !1!E !1!G !1!G !1!G !1!G | %293
 x !4!x !2!B, !2!^C !1!E2 !2!D2 | x !3!G, !2!C !1!E x !2!D !1!F !2!B, | !6!x !2!C !3!G, !1!E x4 :| %296
[K:G][M:6/8] x6 | x6 |[K:G][M:6/8] !4!x !2!B, !4!D, !1!G3 | !1!F3 !4!D,2 !1!F | %300
 !1!G3 !2!B, !2!D !2!B, | !2!C !3!A, !4!F, !4!D, !3!A, !4!F, | !4!x !2!B, !4!D, !1!G3 | !1!F6 | %304
 !4!x !2!B, (!1!G !1!E) !2!C !3!A, | !5!x !2!C !1!F [!3!G,!2!B,!1!G]2 x |] !5!x !3!A, !2!D !1!F3 | %307
 !5!x !3!G, !2!B, !1!E3 | !5!x !3!A, !2!^C !1!E !1!G !1!E | !2!D !1!F !1!E (!2!^C !2!D) !2!B, | %310
 !5!x !3!A, !2!D !1!F3 | !5!x !3!^G, !2!B, !1!E3 | !5!x !3!=G, !2!^C !1!E !1!A !2!C | %313
 [!4!F,!2!D]2 x"^Hr." !4!G,2 x | !2!x !2!D !4!D, !2!x !2!D !4!D, | %315
 !2!x !2!D !4!D, !4!x !2!C !4!D, | !4!x !2!C !4!D, !4!x !2!C !4!D, | %317
 !4!x !2!C !4!D, !4!x !2!B, !4!D, | !4!x !2!B, !4!D, !2!x !2!D !4!D, | %319
 !4!x !2!C !4!D, !5!x !3!A, !4!D, | !4!x !2!B, !4!D, !4!x !2!C !4!D, | %321
 !4!x !2!B, !4!D, !5!x !3!A, !4!D, | !2!x !2!D !4!D, !2!x !2!D !4!D, | %323
 !2!x !2!D !4!D, !4!x !2!^C !4!D, | !4!x !2!=C !4!D, !4!x !2!C !4!D, | %325
 !4!x !2!C !4!D, !4!x !2!B, !4!D, | !2!x !2!D !4!D, !3!x !1!E !4!D, | %327
 !2!x !2!D !4!D, !4!x !2!^C !4!D, | !4!x !2!=C !4!D, !4!x !2!B, !4!D, | %329
 !5!x !3!A, !4!D,- !2!D x2 |][M:2/4] x4 | x2 x |:[K:G][M:2/4] !2!D | !2!B, !1!G !1!F !1!=F | %334
 !1!E3 !1!E | !2!D !2!E !2!D !3!C | !2!B,2 x !2!D | !2!B, !1!G !1!E !2!D | !2!^C3 !2!C | %339
 !2!D !2!^D !1!E !2!^C | !2!D2 x :: !2!D | !2!^D !1!E !1!=F !1!^F | !1!G !1!A !1!^A !1!B | %344
 !1!c !1!A !1!B !1!G | !1!F !1!A !2!D x | !4!^D,/ !2!D/ !4!E,/ !2!D/ !4!^E,/ !2!D/ !4!F,/ !2!D/ | %347
 !3!G,/ !2!D/ !3!A,/ !2!D/ !3!^A,/ !2!D/ x/ !2!D/ | x/ !2!D/ !3!A,/ !2!D/ x/ !2!D/ !3!G,/ !2!D/ | %349
 !4!F,/ !2!D/ !3!A,/ !2!D/ !4!D, !2!D | !2!B, !1!G !1!F !1!=F | !1!E !1!A !1!^G !1!=G | %352
 !1!F !2!D !1!E !1!F | !1!G !1!A !1!B !3!G, | !2!C !2!D !1!E !1!F | !1!G2 !1!E [!3!A,!2!C] | %356
 !2!B,3/4 !3!G,/4 !2!D- !2!D/ !2!C/ !3!A,/ !4!F,/ | !3!G,3 :|[K:C][M:2/4] x4 | x4 |: %360
[M:2/4] [!3!G,!1!E] [!3!A,!1!F] [!3!G,!1!E] !2!D | !2!C !2!B, !2!C !2!B, | !3!A, !2!C !2!B, !2!D | %363
 !2!C !1!E !2!D2 | !1!E !1!F !1!E !2!D | !2!C !2!B, !2!C !1!E | !3!A, !1!F !2!B, !2!D | !2!C2 x2 | %368
 !2!D2 !1!F2 | !1!E2 !2!C2 | !2!B,2 !2!D2 | !2!C2 !1!E2 | !2!D2 !1!F2 | !1!E3 !2!D- | %374
 !2!D !2!C2 [!2!C!1!^F] | [!2!B,!1!G]2 x !3!G, | !1!E !1!F !1!E !2!D | !2!C !2!B, !2!C !2!B, | %378
 !3!A, !2!C !2!B, !2!D | !2!C !1!E !2!D2 | !1!E !1!F !1!E !2!D | %381
 [!4!E,!2!C] [!3!G,!1!E] [!3!_B,!1!G]2 | !1!G !1!F !2!D !2!B, | !2!C2 x2 :|[K:G][M:3/4] x6 | x6 |: %386
[K:G][M:3/4] !2!B,2 !1!E2 !2!B,2 |{/!2!D} [!3!A,!2!C]2 [!3!G,!2!B,]2 x2 | !2!B,2 !1!F2 !3!A,2 | %389
 !3!A,2 !3!G,2 x2 | !2!B,2 !1!E2 !2!B,2 |{/!2!D} !2!C2 !2!B,2 !1!E2- | !1!E2 !3!G,2 !3!A,2 |1 %393
 [!4!^D,!2!B,]4 x2 :|2 [!4!^D,!2!B,]4 x2 |: x2 !1!E2 !1!E2 | !1!E2 !2!D2 !2!C2 | %397
 !2!B,2 !1!=F2 !1!E !2!B, | !2!D4 !2!C2 | [!3!A,!2!C]2 [!3!A,!2!C]2 [!3!A,!2!C]2 | %400
 [!3!A,!2!B,]4 [!3!G,-!2!B,]2 | [!3!G,!1!E]2 [!3!G,!1!E]2 [!3!G,!1!E]2 | [!4!F,!2!^D]2 !2!B,4 | %403
 !2!B,2 !1!E2 !2!B,2 |{/!2!D} [!3!A,!2!C]2 [!3!G,!2!B,]2 x2 | !2!B,2 !1!F2 !3!A,2 | %406
 !3!A,2 !3!G,2 x2 | !2!B,2 !1!E2 !2!B,2 | !2!D2 !2!C2 x2 | !2!B,3/2 !1!E/ !1!G2 !1!F2 | %410
 [!3!G,!1!E]4 x2 :|[K:E][M:6/8] x6 | x6 |:[K:E][M:6/8] x2 x [!3!G,!2!B,]3 | x2 x [!3!A,!2!C]3 | %415
 x2 x [!4!D,!3!A,!2!B,]3 | x2 x [!3!G,!2!B,]3 | x !5!B,, !4!E, !4!x !2!B, !1!E | %418
 !6!x !4!E, !3!A, !2!C !1!E !2!C | !6!x !4!D, !3!A, !2!B, !1!F !3!A, | x2 x [!3!G,!1!E]2 x :: %421
 !5!x !2!D !2!C !2!B, !2!D !1!F | (!1!F !1!E) !2!C !3!^A, !2!C !4!F, | %423
 (!2!B, !2!D) !4!F, !2!B, !2!D (!1!F | !1!E) !2!C !3!^A, !4!F,2 x | !5!x !2!B, !1!F !1!F3 | %426
 !5!x !2!B, !1!G !1!G3 | !5!x !3!^A, !2!C !1!E !2!C !3!A, | !2!B,3 !5!B,,2 x | x2 x [!3!G,!2!B,]3 | %430
 x2 x [!3!A,!2!C]3 | x2 x [!3!A,!2!B,]3 | x2 x [!3!G,!2!B,!1!E]3 | x !5!B,, !4!E, !4!x !2!B, !1!E | %434
 !6!x !4!E, !3!A, !2!C !1!E !2!C | !6!x !4!D, !3!A, !2!B, !1!E !2!B, | x2 x [!3!G,!1!E]2 x :| %437
[K:G][M:2/4] x4 | x4 |[K:G][M:2/4] x !1!G2 !1!F | x (!1!G/ !1!E/) !1!E !2!D | x !2!C2 !2!B, | %442
 x !3!A,/ !4!F,/ !3!G,2 | !2!B,2 !2!B, !2!D | !2!C2 !3!A,2 | !2!B,2 !2!C !1!E | !2!B,2 !3!A, x | %447
 x !1!G2 !1!F | x (!1!G/ !1!E/) !1!E !2!D | x !2!C2 !2!B, | x !3!A,/ !4!F,/ !3!G,2 | %451
 !2!B,2 !2!C !2!D | !2!^D !1!E !1!F !1!G- | !1!G !2!B, !2!C !4!F, | !3!G,2 x2 || %455
 !5!x !2!D !2!D !2!D | !4!x !1!E !1!E !1!E | !4!x !1!G !1!G !1!G | !1!G2 !1!F2 | %459
 !1!E !1!A !1!A !1!A | !1!A2 x2 | !1!E !1!A !1!A !1!A | !1!A2 !2!D !1!E | !1!F2 !1!E !2!D | %464
 !2!B, !2!^D !1!E !1!F | !1!A !1!G !2!B, [!3!G,!2!^C] | !2!D x x2 | !2!D2 !2!D2 | !1!F2 !1!E2 | %469
 [!2!^C!1!E]2 [!2!C!1!E]2 | !1!G2 !1!F2 | [!2!C!1!F]2 [!2!C!1!F]2 | !1!G2 !1!d2 | %473
 [!2!C!1!F]2 [!2!B,!1!G]2 | !1!A2 !2!D !2!C | x !1!G2 !1!F | %476
 (6:4:6x/ (!1!G/ !1!F/) (!1!A/ !1!G/ !1!E/) !1!E !2!D | x !2!C2 !2!B, | x !3!A,3/4 !4!F,/4 !3!G,2 | %479
 !2!B,2- !2!B,/ !2!B,/ !2!D | [!3!B,!2!D] [!3!^A,!2!^C] [!3!=A,!2!=C]2 | !2!B, !2!D !2!C !1!E | %482
 !2!B,2 !3!A,2 | x !1!G2 !1!F | %484
 (9:8:8x/ (!1!G/4 !1!F/4) (!1!A/4 !1!G/4 !1!F/4 !1!G/4 !1!E/4) !1!E !2!D | x !2!C2 !2!B, | %486
 x !3!A,3/4 !4!F,/4 !3!G,2 | !2!B,2 !2!C !2!D | !2!^D !1!E (!1!G/ !1!F/) (!1!A/ !1!G/) | %489
 x !2!B, [!3!A,!2!C] !4!F, | !3!G,3 x |][K:C][M:2/4] x4 | x4 | %493
[M:2/4] !6!x/ !2!C/ !4!E,/ !3!G,/ !4!F,/ !3!A,/ !4!E,/ !3!G,/ | %494
 !6!x/ !2!C/ !4!E,/ !3!G,/ !4!F,/ !3!A,/ !4!E,/ !3!G,/ | %495
 !5!C,/ !3!G,/ !4!E,/ !2!C/ !3!G,/ !1!E/ !2!C/ !1!E/ | (!1!G/ !1!F/) !2!D/ !2!B,/ !3!G,3/2 !2!B,/ | %497
 !6!x/ !2!C/ !4!E,/ !3!G,/ !4!F,/ !3!A,/ !4!E,/ !3!G,/ | %498
 !6!x/ !2!C/ !4!E,/ !3!G,/ !4!F,/ !3!A,/ !4!E,/ !3!G,/ | %499
 !4!F,/ !3!A,/ !4!D,/ !2!C/ !3!G,/ !2!B,/ !4!F,/ !2!D/ | !4!E,/ !2!C/ !3!G,/ !1!E/ x2 | %501
 !2!C/ !1!E/ !3!G,/ !2!C/ !4!E,/ !3!G,/ !5!C,/ !3!G,/ | %502
 !5!B,,/ !1!F/ !3!G,/ !2!D/ x/ !1!F/ !3!G,/ !2!B,/ | %503
 !2!C/ !1!E/ !3!G,/ !2!C/ !4!E,/ !3!G,/ !5!C,/ !3!G,/ | %504
 !5!B,,/ !1!F/ !3!G,/ !2!D/ x/ !1!F/ !3!G,/ !2!B,/ | %505
 !6!x/ !1!E/ !3!G,/ !2!C/ !3!A,/ !1!E/ !5!C,/ !1!E/ | %506
 !4!D,/ !1!^F/ !3!A,/ !2!C/ !4!E,/ !1!G/ !3!G,/ !2!B,/ | %507
 !5!C,/ !1!G/ !3!A,/ !2!C/ !5!A,,/ !1!G/ !4!D,/ !1!^F/ | !3!G,/ !1!G/ !4!D,/ !2!B,/ x !3!G, | %509
 x/ !1!F/ !4!D,/ !2!B,/ !3!G,/ !1!F/ x/ !2!B,/ | %510
 !6!x/ !1!E/ !4!E,/ !2!C/ !3!G,/ !1!E/ !5!C,/ !2!C/ | %511
 !6!x/ !1!F/ !4!D,/ !1!F/ !3!G,/ !1!F/ !5!B,,/ !1!F/ | %512
 !6!x/ !1!E/ !3!G,/ !2!C/ !4!E,/ !2!C/ !5!C,/ !1!E/ || %513
 !6!x/ !1!G/ !4!E,/ !2!^C/ !3!A,/ !2!C/ !5!A,,/ !1!G/ | %514
 !5!x/ !1!^F/ !3!A,/ !2!D/ !3!A,/ !2!C/ !4!D,/ !1!F/ | %515
 x/ !1!=F/ !3!G,/ !2!B,/ !3!G,/ !2!B,/ x/ !1!F/ | %516
 !5!C,/ !1!E/ !3!G,/ !2!C/ !4!E,/ !2!C/ !5!C,/ !1!E/ | %517
 !6!x/ !1!E/ !4!E,/ !2!C/ !3!A,/ !2!C/ !5!A,,/ !1!E/ | %518
 x/ !2!D/ !4!F,/ !3!A,/ !4!F,/ !3!A,/ x/ !2!D/ | %519
 x/ !2!C/ !4!E,/ !3!G,/ !4!D,/ !2!B,/ !4!F,/ !3!G,/ | !5!C,/ !2!C/ !4!E,/ !3!G,/ !5!C, x |] %521
[M:4/4] x8 | x4 |[M:4/4] !6!x/ !2!C/ !1!E/ !2!C/ !3!A,2 || %524
 x/ !2!D/ !1!E/ !2!D/ !3!B,2 !6!x/ !2!C/ !1!E/ !2!C/ !3!A,2 | %525
 !5!x/ !2!B,/ !1!E/ !2!B,/ !3!^G,2 !6!x/ !2!C/ !1!E/ !2!C/ !3!A,2 | %526
 !6!x/ !2!D/ !1!E/ !2!D/ !3!^G,2 !6!x/ !2!C/ !1!E/ !2!C/ !3!A,2 | %527
 x/ !2!B,/ !1!E/ !2!B,/ !3!^G,2 !6!x/ !2!C/ !1!E/ !2!C/ !3!A,2 | %528
 x/ !2!D/ !1!E/ !2!D/ !3!B,2 !6!x/ !2!C/ !1!E/ !2!C/ !3!A,2 | %529
 !6!x/ !2!D/ !1!E/ !2!D/ !3!^G,2 !6!x/ !2!C/ !1!E/ !2!C/ !3!A,2 | %530
 !5!x/ !2!B,/ !1!F/ !2!B,/ !3!A,2 !5!x/ !2!B,/ !1!E/ !2!B,/ !3!^G, !2!D | [!3!A,!2!C]2 x2 |] %532
 !6!x/ !2!C/ !1!E/ !2!C/ !3!A,2 | !6!x/ !2!C/ !1!F/ !2!C/ !3!A,2 !6!x/ !2!D/ !1!F/ !2!D/ !3!G,2 | %534
 !6!x/ !2!C/ !1!E/ !2!C/ !3!G,2 !5!x/ !2!C/ !1!G/ !2!C/ !3!G,2 | %535
 !5!x/ !2!D/ !1!F/ !2!D/ !3!A,2 !5!x/ !2!C/ !1!E/ !2!C/ !3!A,2 | %536
 x2 [!3!B,!2!D]2 x/ !2!B,/ !1!G/ !2!B,/ !3!G,2 | %537
 !6!x/ !2!C/ !1!^F/ !2!C/ !3!G,2 !6!x/ !2!D/ !1!=F/ !2!D/ !3!G,2 | %538
 !6!x/ !2!C/ !1!E/ !2!C/ !3!G,2 !6!x/ !2!C/ !1!E/ !2!C/ !3!A,2 | %539
 x/ !3!A,/ !2!D/ !3!A,/ !4!D,2 x/ !3!G,/ !2!B,/ !3!G,/ !4!F, !3!G, | %540
 [!4!E,!2!C]2 x2 !6!x/ !2!C/ !1!E/ !2!C/ !3!G,2 | %541
 !6!x/ !2!D/ !1!G/ !2!D/ !3!G,2 !6!x/ !2!D/ !1!G/ !2!D/ !3!G,2 | %542
 !6!x/ !2!^C/ !1!G/ !2!C/ !3!A,2 !5!x/ !2!D/ !1!F/ !2!D/ !3!A,2 | %543
 !3!x/ !2!D/ !1!E/ !2!D/ !3!_B,2 !4!x/ !2!^C/ !1!E/ !2!C/ !5!A,, !1!E | %544
 !1!G2 !1!F2 !5!x/ !2!D/ !1!F/ !2!D/ !3!A,2 | %545
 !5!x/ !2!D/ !1!E/ !2!D/ !3!^G,2 x/ !2!D/ !1!E/ !2!D/ !3!B,2 | %546
 !6!x/ !2!C/ !1!E/ !2!C/ !3!A,2 x/ !2!^C/ !1!E/ !2!C/ !3!A,2 | %547
 x/ !3!A,/ !2!D/ !3!A,/ !5!A,,2 x/ !3!A,/ !2!^D/ !3!A,/ !5!B,,2 | %548
 [!3!^G,!1!E]4 !4!E,/ !3!G,/ !1!E/ !3!G,/ [!3!G,!1!E]2 | %549
 !4!^D,/ !3!A,/ !1!^F/ !3!A,/ [!3!A,!1!F]2 !4!D,/ !3!A,/ !1!F/ !3!A,/ [!3!A,!1!F]2 | %550
 x/ !3!^G,/ !1!E/ !3!G,/ [!3!G,!1!E]2 !4!E,/ !3!G,/ !1!E/ !3!G,/ [!3!G,!1!E]2 | %551
 !4!^D,/ !3!A,/ !1!^F/ !3!A,/ [!3!A,!1!F]2 !4!D,/ !3!A,/ !1!F/ !3!A,/ [!3!A,!1!F]2 | %552
 [!3!^G,!1!E]4 !4!E,/ !3!G,/ !1!E/ !3!G,/ [!3!G,!1!E]2 | %553
 !4!^D,/ !3!A,/ !1!^F/ !3!A,/ [!3!A,!1!F]2 !4!D,/ !3!A,/ !1!F/ !3!A,/ [!3!A,!1!F]2 | %554
 x/ !3!^G,/ !1!E/ !3!G,/ [!3!G,!1!E]2 !4!E,/ !3!G,/ !1!E/ !3!G,/ [!3!G,!1!E]2 | %555
 !4!^D,/ !3!A,/ !1!^F/ !3!A,/ [!3!A,!1!F]2 !4!D,/ !3!A,/ !1!F/ !3!A,/ [!3!A,!1!F]2 | %556
 [!3!^G,!1!E]2 x2 !6!x/ !2!C/ !1!E/ !2!C/ !3!A,2 |][K:G][M:6/8] x6 | x6 |: %559
[K:G][M:6/8] !2!B,3 !2!C3 | !2!D3 !1!G3 | !2!B,3 !2!C3 | !2!D3 !2!D !2!D !2!^D | !1!E3 !2!D3 |1 %564
 !2!^C3 !2!D3 | !2!=C3 !2!B,3 | !3!A,3 !2!D !2!^C !2!=C :|2 !2!^C3 !2!D2 !2!^D | %568
 !1!E3{/!1!G} !1!F !1!E !1!F | [!2!B,!1!G]3 x2 x |] !3!A,3 !2!B,3 | !2!B,3 !2!C3 | !2!B,3 !2!C3 | %573
 !2!^C3 !2!D3 | !2!E3 !2!D3 | [!2!C!1!F]3 [!2!B,!1!G]3 | !2!C3 !2!B,2{/!2!D} !2!C | %577
 !2!B,3 !3!A,2 x | !3!A,3 !2!B,3 | [!3!^G,!2!B,]2 !2!D !2!C3 | !2!B,3 !2!C3 | [!2!^C!1!E]3 !2!D3 | %582
 !2!D3 [!2!B,!1!B]2 !2!D | !2!C3 [!3!C!1!A]2 !2!C | !2!B,3 !2!^C3 | !2!D3- !2!D !2!^C !2!=C || %586
[K:D][M:2/4] x4 | x4 |[K:D][M:2/4] (!2!B,/ !2!D) (!2!D/ !2!C/) !1!E/ !3!^A,/ !2!C/ | %589
 !2!B,/ !2!D (!2!D/ !2!C/) !1!E/ !3!^A,/ !2!C/ | %590
 !2!B,/ !5!x/ !2!B,/ !2!D/ (!1!F/ !1!E/) !2!C/ !1!E/ | %591
 !2!D/ !2!B,/ !3!^A,/ !2!B,/ !2!C/ !3!A,/ !4!F,/ x/ | %592
 (!2!B,/ !2!D) (!2!D/ !2!C/) !1!E/ !3!^A,/ !2!C/ | %593
 (!2!B,/ !2!D) (!2!D/ !2!C/) !1!E/ !3!^A,/ !2!C/ | %594
 !2!B,/ !2!D/ !3!G,/ !2!B,/ !4!E,/ !2!C/ !4!F,/ (!3!^A,/ | x/) !2!D/ !4!F,/ !3!B,/ !5!B,, x |] %596
 !4!x/ !2!C/ !4!F,/ !2!C/ !4!F,/ !2!C/ !3!^A,/ !2!C/ | %597
 !2!x/ !2!D/ !4!F,/ !2!D/ !4!F,/ !2!D/ x/ !2!D/ | !2!C/ !1!E/ !3!^A,/ !2!C/ x/ !2!D/ !4!F,/ !2!D/ | %599
 x/ !2!D/ !4!F,/ !2!D/ !3!^A,/ !2!C/ !4!F,/ !2!C/ | %600
 !4!x/ !2!C/ !4!F,/ !2!C/ !4!F,/ !2!C/ !3!^A,/ !2!C/ | %601
 x/ !2!D/ !4!F,/ !2!D/ !4!F,/- !2!D/ x/ !2!D/ | !2!C/ !1!E/ !3!^A,/ !2!C/ x/ !2!D/ !3!G,/ !1!E/ | %603
 !4!F,/ !1!F/ !3!^A,/ !1!F/ !4!F, !1!F | !5!x/ !1!F/ !3!A,/ !1!F/ !2!D/ !1!F/ !3!A,/ !1!F/ | %605
 (!1!E/ !1!G/) !2!B,/ !1!G/ !3!G,/ !1!G/ !2!B,/ !1!G/ | %606
 (!1!E/ !1!G/) !2!C/ !1!G/ !3!A,/ !1!G/ !2!C/ !1!G/ | %607
 !5!x/ !1!G/ !2!C/ !1!G/ !2!D/ !1!F/ !3!A,/ !1!F/ | %608
 !3!G,/ !1!E/ !3!A,/ !2!C/ !3!G,/ !1!E/ !3!A,/ !2!C/ | %609
 !4!F,/ !2!D/ !3!A,/ !2!D/ !4!F,/ !2!D/ !3!A,/ !2!D/ | %610
 !3!G,/ !1!E/ !3!A,/ !2!C/ !3!G,/ !1!E/ !3!A,/ !2!C/ | %611
 !4!F,/ !2!D/ !3!A,/ !2!D/ !4!F,/ !2!D/ !4!D,/ !2!D/ | %612
 !3!G,/ !2!D/ !4!D,/ !2!D/ x/ !2!D/ !3!G,/ !2!D/ | %613
 !4!F,/ !2!D/ !3!A,/ !2!D/ !4!F,/ !2!D/ !4!D,/ !2!D/ | %614
 !3!G,/ !2!D/ !4!D,/ !2!D/ x/ !2!D/ !3!G,/ !2!D/ | %615
 !4!F,/ !2!D/ !3!A,/ !2!D/ !4!F,/ !2!D/ !4!D,/ !2!D/ | %616
 !3!G,/ !2!D/ !1!E/ !2!D/ !3!^G,/ !2!D/ !1!E/ !2!D/ | %617
 !3!A,/ !2!D/ !1!E/ !2!D/ !3!^A,/ !2!D/ !1!E/ !2!D/ | %618
 x/ !2!D/ !1!E/ !2!D/ !3!A,/ !2!D/ !1!E/ !2!D/ | !4!x/ !2!D/ !1!E !1!F !1!E | %620
 !4!x/ !2!C/ !1!E !1!A !1!A | !4!F,/ !2!D/ !1!A/ !2!D/ x/ !2!D/ !1!F/ !2!D/ | %622
 !3!G,/ !2!E/ !1!G/ !2!E/ !3!A,/ !2!C/ !1!E/ !2!C/ | !2!D/ !1!F/ !3!A,/ !2!D/ !4!D, x | %624
 !2!D/ !1!F/ !2!=C/ !1!E/ x/ !2!^D/ !3!A,/ !2!B,/ | %625
 !3!G,/ !1!E/ !2!B,/ !1!E/ !4!E,/ !1!G/ !2!B,/ !1!G/ | %626
 !4!^D,/ !1!F/ !2!B,/ !1!F/ !4!F,/ !1!A/ !2!B,/ !1!A/ | %627
 !4!F,/ !1!A/ !2!B,/ !1!A/ !4!E,/ !1!G/ !2!B,/ !1!G/ | %628
 !4!E,/ !1!G/ !2!B,/ !1!G/ !4!D,/ !1!F/ !2!B,/ !1!F/ | %629
 !3!G,/ !1!E/ !2!B,/ !1!E/ !4!F,/ !2!D/ !3!B,/ !2!D/ | %630
 !4!E,/ !2!C/ !3!G,/ !2!C/ !4!^E,/ !2!B,/ !3!^G,/ !2!B,/- | !2!x/ !3!^A,/ !2!C/ !3!A,/ !4!F, x | %632
 !4!x/ !1!E/ !2!B,/ !1!E/ !2!C/ !1!E/ !2!B,/ !1!E/ | !5!x/ !3!^A,/ !1!E/ !2!C/ !3!A,/ !2!C/ !3!A, | %634
 !4!x/ !1!E/ !2!B,/ !1!E/ !2!C/ !1!E/ !2!B,/ !1!E/ | %635
 !3!^A,/ !4!F,/ (!1!F !1!x/ !1!E/) !2!D/ !2!C/ |][K:C][M:6/8] x6 | x6 |[M:6/8] !2!C x2 !2!B, x2 | %639
 !2!C x2 !2!B, x2 | !2!C x2 !1!E x2 | !1!G3 (!1!G !1!F) !2!D | !2!C x2 !2!B, x2 | %643
 !2!C x2 !2!B, x2 | !2!C x2 !1!E x2 | [!3!B,!2!D] !3!G, !3!_A, !3!=A, !3!_B, !2!=B, | %646
 !2!C x2 !2!B, x2 | !2!C x2 !2!B, x2 | !2!C x2 !1!E x2 | !1!G3- !1!G !1!^F !1!=F | !1!E3 !1!G3 | %651
 !1!G3 [!2!D!1!F]3 | [!2!C!1!E]3 !2!D2 !2!B, | !2!C !3!G, !1!E !2!C x2 :: !2!D x2 !2!^C x2 | %655
 !2!D3 !1!G x2 | !2!E x2 !2!^D x2 | !1!E3 !1!G x2 | !1!F3 !1!G3 | !1!E3 !1!G3 | !1!F3 !1!E3 | %661
 [!3!B,!2!D] x2 x2 x | !1!F3 !1!E3 | !1!F3 !1!^F3 | !1!G3 !1!^G3 | !1!G3 !1!^G3 | !1!A3 !1!B3 | %667
 !1!c3 !1!d3 | [!2!x!1!e]3{/!1!G} !1!^F !1!E !1!F | !1!G !1!=F !2!D !2!B,2 x :|[K:G][M:2/4] x4 | %671
 x4 |[K:G] !1!B3/2 (!1!B/ !1!^A3/2) (!1!A/ | !1!B3/2) (!1!B/ !1!E3/2) (!1!E/ | %674
 !1!F3/2) !1!F/ !1!G3/2 (!1!F/ | !1!E3/2) (!1!E/ !1!F3/2) (!1!F/ | !1!G3/2) !1!G/ !1!B3/2 (!1!B/ | %677
 !1!A3/2) (!1!A/ !1!F3/2) (!1!F/ | !1!G3/2) (!1!G/ !1!E3/2) !1!E/- | %679
 !1!E/ !2!^D/ !1!F/ !2!D/ x !2!B, | !1!B3/2 (!1!B/ !1!^A3/2) (!1!A/ | %681
 !1!B3/2) (!1!B/ !1!E3/2) !1!E/ | !1!F3/2 !1!F/ !1!G3/2 !1!F/ | !1!E3/2 !1!E/ !1!F3/2 !1!F/ | %684
 !1!G3/2 (!1!G/ !1!^G3/2) (!1!G/ | !1!B3/2) !1!A/ !1!G3/2 !1!F/ | %686
 !1!E3/2 !2!B,/ !1!G3/2 [!3!A,!1!F]/ | [!3!G,!1!E]2 x2 | !1!F3/2 (!1!F/ !1!A3/2) (!1!A/ | %689
 !1!G3/2) (!1!G/ !1!E3/2) !1!E/ | !2!^D3/2 !2!D/ !1!F3/2 (!1!F/ | !1!E3/2) !1!E/ !1!G3/2 !1!G/ | %692
 !1!F3/2 !1!F/ !1!A3/2 !1!A/ | !1!G3/2 !1!G/ !1!F3/2 !1!F/ | !1!E3/2 !1!E/ !1!F3/2 !1!F/ | %695
 !2!^D2 x (!2!B,3/4 !1!B/4) | !1!B3/2 (!1!B/ !1!^A3/2) (!1!A/ | !1!B3/2) (!1!B/ !1!E3/2) !1!E/ | %698
 !1!F3/2 (!1!F/ !1!G3/2) (!1!F/ | !1!E3/2) !1!E/ !1!F3/2 !1!F/ | !1!G3/2 !1!G/ !1!B3/2 !1!B/ | %701
 !1!A3/2 !1!A/ !1!F3/2 !1!F/ | !1!G3/2 !1!G/ !1!E3/2 !1!E/- | !1!E/ !2!^D/ !1!F/ !2!D/ x !2!B, | %704
 !1!B3/2 (!1!B/ !1!^A3/2) (!1!A/ | !1!B3/2) !1!B/ !1!E3/2 !1!E/ | !1!F3/2 !1!F/ !1!G3/2 (!1!F/ | %707
 !1!E3/2) !1!E/ !1!F3/2 !1!F/ | !1!G3/2 !1!G/ !1!^G3/2 !1!G/ | !1!A3/2 !1!A/ !1!c3/2 !1!c/ | %710
 !1!E3/2 !1!E/ !1!F3/2 !2!^D/ | !1!E3/2 !2!B,/ !1!E3/2 !2!B,/ | !1!F3/2 !2!B,/ !1!G3/2 !1!F/ | %713
 !1!E3/2 !2!B,/ !1!E3/2 !2!B,/ | !1!F3/2 !2!B,/ !1!G3/2 !1!F/ | !2!x3/2 !2!B,/ !1!E3/2 !5!B,,/ | %716
 !6!E,,/ !4!E,/ !3!G, !1!E3/2 !5!B,,/ | x/ !4!E,/ !3!G, !1!E3/2 !5!B,,/ | %718
 x/ !4!E,/ !3!G, !1!E3/2 !5!B,,/ | !6!E,,4 |][K:A][M:2/4] x4 | x4 |[K:A][M:2/4] x2 !1!E !1!A- | %723
 !1!x !1!G !1!B !1!E | x !1!A !1!c !1!^B | !1!=B !1!G !1!A !1!B | !1!G !1!E !1!E !1!A | %727
 x !1!G !1!B !1!E | x !1!A !1!c !1!c | x !1!B !1!d !1!G | !1!A x !1!G !1!G | !1!G !1!A !1!F !1!F | %732
 !1!^^F !1!G !1!B !1!B | !1!^A !1!=A !1!G !1!=G | !1!F2 !1!G !1!G | !1!B !1!A !1!F !1!F | %736
 !1!A !1!G !1!B !1!E | !1!E !1!A !1!G !1!F | !1!E2 !1!E !1!E | %739
 !3!G,/ !1!E/ !4!E,/ !1!E/ !3!G,/ !1!E/ !2!B,/ !1!E/ | %740
 !3!A,/ !1!E/ !4!E,/ !1!E/ !3!A,/ !1!E/ !2!=C/ !1!E/ | %741
 !2!B,/ !1!E/ !2!D/ !1!E/ !2!=C/ !1!E/ !3!A,/ !1!E/ | !3!G,/ !2!B,/ !4!E, !1!E !1!E | %743
 x/ !1!E/ !3!G,/ !1!E/ !2!B,/ !1!E/ !2!D/ !1!E/ | %744
 !2!=C/ !1!E/ !4!E,/ !1!E/ !2!C/ !1!E/ !2!E/ !1!E/ | %745
 !2!D/ !1!E/ !2!B,/ !1!E/ !2!=C/ !1!E/ !3!A,/ !2!^D/ | !3!G,/ !1!E/ !1!E/ !1!E/ !1!E !1!A | %747
 x !1!G !1!B !1!E | x !1!A !1!c !1!^B | !1!=B !1!G !1!A !1!B | !1!G !1!E !1!E !1!A- | %751
 !1!A2 !1!B !1!E- | !1!E !1!A !1!c !1!c- | !1!c !1!B !1!d !1!G | !1!A x x2 |][K:F][M:4/4] x8 | x8 | %757
[K:F][M:4/4] !5!x/ !2!D/ !1!F/ !2!D/ !4!x/ !2!D/ !1!F/ !2!D/ x2 !1!F2 | !1!F4 !2!D2 x2 | %759
 x/ !2!D/ !1!F/ !2!D/ !4!x/ !2!D/ !1!F/ !2!D/- !2!D2 !1!F2 | [!2!D!1!F]4 !1!E2 x2 | %761
 !5!A,,/ !2!^C/ !1!E/ !2!C/ !3!A,/ !2!C/ !1!E/- !2!C/- [!2!C!1!E]2 [!2!E!1!G]2 | %762
 !5!A,,/ !2!D/ !1!F/ !2!D/ !3!A,/ !2!D/ !1!F/- !2!D/- [!2!D!1!F]2 [!2!F!1!A]2- | %763
 [!2!F!1!A]2 [!2!E!1!G]4 [!2!D!1!F]2 | %764
 [!5!A,,!2!^C!1!E]2 [!3!A,!1!A]3/2 !1!A/ [!3!A,!1!A]2 !5!A,,2 | %765
 !5!x/ !2!D/ !1!F/ !2!D/ !4!x/ !2!D/ !1!F/- !2!D/- [!2!D!1!F]2 !1!F2 | !1!F4 !2!D2 x2 | %767
 !5!x/ !2!D/ !1!F/ !2!D/ !4!x/ !2!D/ !1!F/ !2!D/- !2!D2 !1!F2 | [!2!D!1!F]4 !1!E2 x2 | %769
 !6!x/ !2!^C/ !1!E/ !2!C/ x/ !2!C/ !1!E/- !2!C/- [!2!C!1!E]2 [!2!E!1!G]2 | %770
 !5!x/ !2!D/ !1!F/ !2!D/ !4!x/ !2!D/ !1!F/- !2!D/- [!2!D!1!F]2 [!2!F!1!A]2- | %771
 [!2!F!1!A]2 [!2!E!1!G]2 x2 [!2!^C!1!E]2 | [!2!D!1!F]2 !3!A,/ !2!D/ !1!F/ !2!D/ !4!D,2 x2 |] %773
 !6!x/ !2!^C/ !1!E/ !2!C/ !3!A,/ !2!C/ !1!E/ !2!C/ x2 [!3!C!1!A]2 | [!3!D!1!=B]4 [!3!D!1!E]4 | %775
 !6!x/ !2!^C/ !1!E/ !2!C/ !3!A,/ !2!C/ !1!E/ !2!C/ x2 [!3!C!1!A]2 | [!3!D!1!=B]4 [!3!D!1!E]4 | %777
 !6!x/ !2!^C/ !1!E/ !2!C/ !3!A,/ !2!C/ !1!E/- !2!C/- !1!E2 !1!A2 | %778
 !5!A,,/ !2!D/ !1!F/ !2!D/ !3!A,/ !2!D/ !1!F/- !2!D/- [!2!D!1!F]2 !1!A2 | %779
 !6!x/ !2!=B,/ !1!^G/ !2!B,/ x/ !2!B,/ !1!G/ !2!B,/ !3!D2 [!4!^G,!3!D!1!=B]2 | [!3!^C!1!A]2 x2 x4 | %781
 !6!x/ !2!D/ !1!G/ !2!D/ !3!G,/ !2!D/ !1!G/- !2!D/- [!2!D!1!G]4 | %782
 !6!x/ !2!^C/ !1!G/ !2!C/ !3!A,/ !2!C/ !1!G/- !2!C/- !1!G4 | %783
 !6!x/ !2!D/ !1!G/ !2!D/ !3!G,/ !2!D/ !1!G/- !2!D/- [!2!D!1!G]4 | %784
 !6!x/ !2!^C/ !1!G/ !2!C/ !3!A,/ !2!C/ !1!G/- !2!C/- !1!G4 |][K:D][M:6/8] x6 | x6 |: %787
[K:D][M:6/8] [!6!E,,!4!F,!2!D]3 !1!E3/2 !1!F/ !1!E | %788
 [!4!F,!2!D] x/"^harm."!8va(! !3!A,/ !2!D/ !1!E/ !1!F !2!D !1!A!8va)! | %789
 [!2!C!1!E]2 !1!E !2!D3/2 !1!E/ !2!D | %790
 !2!C x/"^harm."!8va(! !3!A,/ !2!C/ !2!D/ !1!E !2!C !3!A,!8va)! | %791
 [!4!F,!2!D]2 [!4!F,!2!D] [!3!G,!2!C!1!E]3/2 !1!F/ !1!E | %792
 !2!D x/"^harm."!8va(! !2!C/ !2!D/ !1!E/ !1!F !2!D x!8va)! | !2!C2 !2!C !1!E3/2 !2!D/ !2!B, | %794
 !3!A, x"^harm."!8va(! !3!C !1!A!8va)! x2 :: [!2!C!1!E]2 [!2!C!1!E] [!2!C!1!E]3/2 !1!F/ !1!E | %796
 [!4!F,!2!D] x/"^harm."!8va(! !3!A,/ !2!D/ !1!E/ !1!F/ !2!C/ !2!D/ !1!F/ !1!A!8va)! | %797
 [!2!C!1!E]2 [!2!C!1!E] !1!A !1!G !1!E | %798
 [!4!F,!2!D]/!8va(! !3!A,/ x/ !2!C/ !2!D/ !1!E/ !1!F/ !2!C/ !2!D/ !1!F/ !1!A!8va)! | %799
 !1!F2 !1!F{/!1!G} !1!F3/2 !1!E/ !1!F | %800
 !1!G/"^harm."!8va(! !2!D/ !2!C/ !2!D/ !1!E/ !1!F/ !1!G/ !2!D/ !1!G/ !1!B/ !1!d!8va)! | %801
 [!3!A,!1!F]2 !1!F !1!E3/2 !1!F/ !1!E | %802
 [!4!F,!2!D]"^harm."!8va(! !1!F/ !2!D/ !3!A,/ !4!F,/ !4!D,3!8va)! :| %803
V:6
 x8 | x8 |:[M:4/4] x8 | x8 | x8 | x8 | x8 | x8 | x8 | x8 :: x8 | x8 | x8 | x8 | x8 | x8 | x8 | %17
 x8 :|[M:3/4] x6 | x6 |[M:3/4] x6 | x6 | x6 | x6 | x6 | x6 | x6 | x6 | x6 | x6 | x6 | x6 | x6 | %33
 x6 | x6 | x6 | x6 | x6 | x6 | x6 | x6 | x6 | x6 | x6 | x6 | x6 | x6 | x6 | x6 | x6 | x6 | x6 | %52
 x6 | x6 | x6 | x6 | x6 | !5!C,2 !4!D,2 !4!E,2 | !4!F,4 !3!G,2 | !5!C,4 x2 |][M:4/4] x8 | x8 | x8 | %63
 x8 | x8 | x8 | x8 | x8 | x8 | x8 | x8 | x8 | x8 | x8 | x8 | x8 | x8 | x8 | x8 | x8 | x8 | x8 | %82
 x8 | x8 | x8 | x8 |][K:Eb][M:3/4] x6 | x4 |:[M:3/4] x2 | x6 | x6 | x6 | x6 | x6 | x6 | x6 | x4 :: %97
 x2 | x6 | x6 | x6 | x6 | x6 | x6 | x6 | x6 | x6 | x6 | x6 | x6 | x6 | x6 | x6 | x6 :| %114
[K:C][M:6/8] x6 | x6 |:[M:6/8] !5!A,,6 | !4!D,6 | !4!E,3 !6!E,,3 | !5!A,,6 | !5!A,,6 | !4!D,6 | %122
 !4!E,6 | x6 :: !4!E,6- | !4!E,6 | !6!E,,6 | !5!A,,6 | !4!D,3 !3!G,3 | !5!C,3 !4!F,3 | %130
 !4!D,3 !4!E,3 | !5!A,,3 x3 ::[K:A] !5!A,,6 | !6!E,,6 | !6!E,,6 | !6!E,,6 | !5!A,,6 | !6!E,,6 | %138
 !6!E,,6 | !5!A,,3 x3 :: !6!E,,6 | !6!E,,6 | !6!E,,6- | !6!E,,6 | !6!E,,6 | !6!E,,6 | !6!E,,6 | %147
 !4!E,6 | !5!A,,6 | !6!E,,6 | !5!A,,6 | !6!E,,6 | !5!A,,6 | !4!D,6 | !4!E,3 !6!E,,3 | !5!A,,3 x3 :| %156
[K:C][M:2/4] x4 | x3 |:[M:2/4] x | !5!C,4 | x2 !4!F,2 | x2 !3!G,2 | x2 !5!C,2- | !5!C,4 | %164
 x2 !4!F,2 | x2 !3!G,2 | x !3!G, !5!C, :: x | x2 !3!G,2 | x2 !3!G,2 | x2 !3!G,2 | x2 !5!C,2 | %172
 x2 !5!A,,2 | !4!D,2 !4!F,2 | !3!G,2 !6!G,,2 | x2 !5!C, :: x | x2 !5!A,,2 | x2 !4!E,2 | %179
 x2 !6!E,,2 | x2 !5!A,,2 | x !3!A, x !3!G, | x !4!F, x !4!E, | x !4!D, x !4!^D, | !4!E,2 !6!E,, :: %185
 x | x2 !4!D,2 | x2 !5!C,2 | x2 !6!^G,,2 | x2 !5!A,,2 | !4!D,4 | x !4!E, !4!F,2 | !4!D,2 !4!E,2 | %193
 !5!A,, !4!E, !5!A,, :|[M:3/8] x3 | x2 |:[M:3/8] x | !5!C,3- | !5!C,3 | !3!G,3 | !2!C3 | !5!C,3- | %202
 !5!C,3 | !4!D,2 !3!G, | !5!C,2 :: x | !3!G,3- | !3!G,3 | !4!F,3 | !4!E,2 x | %210
 !6!G,, !5!A,, !5!B,, | !5!C, !4!D, !4!E, | !4!F,2 !3!G, | !5!C, x :: x | x x x | x x x | !5!C,3 | %218
 x2 x | x x x | x x x | !5!C,3 | x2 :: x | !5!A,,3 | !5!A,,3- | !5!A,,3 | [!5!A,,!3!A,]3 | %228
 !5!A,,3 | !5!A,,3- | !5!A,,3 | !5!A,,2 x | x x x | x x x | x2 x | x2 x | x x x | %237
 x !3!G, [!3!_B,!2!D] | x !5!C, !3!_B, | !4!F, x :|[M:4/4] x8 | x8 |:[M:4/4] !5!C,8 | !4!D,8 | %244
 !5!C,4 !4!E,4 | !3!G,6 !3!G,2 | !5!C,8 | !6!G,,8 | !5!C,4 !4!D,4 | x2 !3!G,2 !6!G,,2 x2 :: %250
 !5!B,,8 | !5!C,8 | !5!B,,8 | !5!C,8 | !5!A,,4 !4!D,4 | !3!G,4 !3!A,4 | !4!F,4 !3!G,4 | %257
 !5!C,6 x2 :|[M:4/4] x8 | x8 |:[M:4/4] !5!C,8 | !4!D,8 | !5!C,4 !4!E,4 | %263
 x !3!G,3- !3!G, !3!G,2 !3!G, | !5!C,8 | !6!G,,8 | !5!C,4 !4!D,4 | !3!G,4 x4 :: !5!B,,8 | !5!C,8 | %270
 !5!B,,8 | !5!C,8 | !5!A,,4 !4!D,4 | !3!G,4 !3!A,4 | !4!F,4 x4 | x2 !3!G,2 !5!C,2 x2 :|[M:4/4] x8 | %277
 x6 |:[M:4/4] x2 | x !2!C x !3!G, x !4!E, x !5!C, | !5!B,,4 x4 | x4 !5!C,4 | x8 | %283
 x !2!C x !3!G, x !4!E, x !4!D, | !5!B,,4 x !3!G, x !3!G, | x !2!C !6!E,,2 !6!F,,2 !6!G,,2 | %286
 x2 x2 x2 :: x2 | x2 x2 x2 x2 | !4!D,6 x2 | x2 x2 x2 x2 | x2 !5!A,,2 [!6!G,,!2!B,] x !6!F,,2 | %292
 !6!E,,8 | !6!F,,4 x4 | !6!G,,4 !6!G,,4 | !5!C,4 !5!C,4 :|[K:G][M:6/8] x6 | x6 | %298
[K:G][M:6/8] !3!G,6 | !2!x !3!A, !2!C x3 | !2!x !4!D, !3!G, x3 | x6 | !3!G,3 x3 | %303
 !2!x !3!A, !2!C !5!x !2!C !3!A, | !3!G,3 x3 | !4!D,3 x3 |] !4!D,6 | !4!D,6 | !4!D,6- | !4!x6 | %310
 !4!D,6 | !4!D,6 | !4!D,6 | x6 | !3!B,3 !3!B,3 | !3!B,3 !3!A,3 | !3!A,3 !3!A,3 | !3!A,3 !3!G,3 | %318
 !3!G,3 !3!B,3 | !3!A,3 !4!F,3 | !3!G,3 !3!A,3 | !3!G,3 !4!F,3 | !3!B,3 !3!B,3 | !3!B,3 !3!^A,3 | %324
 !3!A,3 !3!A,3 | !3!A,3 !3!G,3 | !3!B,3 !2!C3 | !3!B,3 !3!^A,3 | !3!A,3 !3!G,3 | !4!F,3 !4!D, x2 |] %330
[M:2/4] x4 | x3 |:[K:G][M:2/4] x | !3!G,4 | x !2!C !3!A, !3!G, | !4!F,4 | !3!G, !4!D, !3!G,2 | %337
 !3!G,4 | x !3!_B, !3!A, !3!G, | !4!F,2 !3!G, !3!A, | !4!D,2 !4!D, :: x | !4!D,4- | !4!D,4 | %344
 !4!D,2 !4!D,2 | !4!D,3 !4!D, | x x x x | x x x !3!B, | !3!C x !3!B, x | x x x2 | !3!G,4 | !3!C4 | %352
 !4!D,2 !2!^C !2!=C | !2!B, !3!A, !3!G, !4!=F, | !4!E, !4!D, !5!^C, !5!=C, | !5!B,,2 x2 | %356
 !4!D,2 !4!D, x | x !4!D, !6!G,, :|[K:C][M:2/4] x4 | x4 |:[M:2/4] !5!C,2 x !4!F, | %361
 !4!E, !4!D, !4!E, !3!G, | !4!F, !3!A, !3!G, !4!F, | !4!E, !5!C, x2 | !5!C,2 x2 | %365
 !4!E, !4!D, !4!E, !5!C, | !4!F, !4!D, !3!G, !4!F, | !4!E, !3!G, !5!C,2 | !5!B,,2 !4!D,2 | %369
 !5!C,2 !4!F,2 | !4!D,2 !4!F,2 | !4!E,2 !5!C,2 | !5!B,,2 !4!D,2 | !5!C,2 !5!B,,2 | !5!A,,2 !4!D,2 | %375
 x4 | !5!C, !3!A, !3!G, !4!F, | !4!E, !4!D, !4!E, !3!G, | !4!F, !3!A, !3!G, !4!F, | %379
 !4!E, !5!C, !5!B,, !3!G, | !5!C,2 x2 | x2 x !4!E, | [!4!F,!3!A,]3 !3!G, | !5!C,2 [!5!C,!4!E,] x :| %384
[K:G][M:3/4] x6 | x6 |:[K:G][M:3/4] !6!E,,6 | !6!E,,4 !4!E,2 | !4!^D,6 | !4!E,4 x2 | !6!E,,6 | %391
 !6!E,,4 x2 | !5!C,6 |1 x !5!B,,2 !5!A,, !6!G,, !6!F,, :|2 x2 !5!B,,2 !5!A,,2 |: !6!^G,,6 | %396
 !5!A,,6 | !4!D,4 x2 | !5!A,,6 | !5!A,,2 !5!C,2 !4!E,2 | !4!^D,2 !5!B,,2 !4!E, !4!=D, | %401
 !5!C,2 !5!B,,2 !5!^A,,2 | !5!B,,2 x2 !3!A,2 | !6!E,,6- | !6!E,,4 !4!E,2 | !4!^D,6 | !4!E,4 x2 | %407
 !6!E,,6 | !5!A,,4 x2 | !6!G,,4 x2 | !4!E,2 !6!E,,2 x2 :|[K:E][M:6/8] x6 | x6 |: %413
[K:E][M:6/8] !6!E,,6 | !5!A,,6 | !5!B,,6 | !4!E,6 | !6!E,,6 | !5!A,,6 | !5!B,,6 | %420
 !6!E,,3 !4!E,2 x :: !4!F,6- | !4!F,6- | !4!F,6- | !4!F,2 x4 | !4!D,6 | !4!E,6 | !4!F,6 | x6 | %429
 !6!E,,6 | !5!A,,6 | !5!B,,3 !4!D,3 | !4!E,6 | !6!E,,6 | !5!A,,6 | !5!B,,6 | !6!E,,3 !4!E,2 x :| %437
[K:G][M:2/4] x4 | x4 |[K:G][M:2/4] [!3!G,!2!B,]2 [!3!A,!2!C]2 | [!3!G,!2!B,]2 [!4!F,!3!A,]2 | %441
 [!4!E,!3!G,]2 !4!D,2 | !5!C,2 !5!B,, !4!D, | !3!G, !4!D, !3!G, !3!B, | !3!A, !4!D, !4!F, !4!D, | %445
 !3!G, !4!=F, !4!E, !5!C, | !4!D, !3!G, !4!F, !4!D, | [!3!G,!2!B,]2 [!3!A,!2!C]2 | %448
 [!3!G,!2!B,]2 [!4!F,!3!A,]2 | !4!E,2 !4!D,2 | !5!C,2 !5!B,, !4!D, | x !3!G,/ !4!=F,/ !4!E, !4!D, | %452
 !5!C,4 | !4!D,3 x | !5!B,, !4!D, !6!G,, !3!G, || [!4!F,!3!A,]4 | [!3!G,!2!B,]4 | [!3!A,!2!^C]4 | %458
 !4!D,4 | !3!G,4 | !4!F,4 | [!3!G,!2!^C]4 | !4!F,3 x | x [!4!D,!3!A,] [!4!E,!3!G,] [!4!F,!3!A,] | %464
 !3!G,4- | !3!G,3 !5!A,, | [!5!D,!4!F,] !4!D, !4!D, !4!D, | !4!F, !4!D, !4!F, !4!D, | %468
 !4!x !4!D, !4!D, !4!D, | !3!G, !4!D, !3!G, !4!D, | !4!x !4!D, !4!D, !4!D, | %471
 !3!A, !4!D, !3!A, !4!D, | [!3!G,!2!B,] !4!D, [!3!G,!2!B,] !4!D, | !3!A, !4!D, !3!G, !4!D, | %474
 [!4!F,!3!A,] !4!D,- !4!D,2 | [!3!G,!2!B,]2 [!3!A,!2!C]2 | [!3!G,!2!B,]2 [!4!F,!3!A,]2 | %477
 !4!E,2 !4!D,2 | !5!C,2 !5!B,, !4!D, | x/ !6!G,,/ !5!B,,/ !4!D,/ !3!G,3/2 !4!D,/ | %480
 !4!D,2- !4!D,/ !4!D,/ !4!F,/ !4!D,/ | !3!G, !4!=F, !4!E, !5!C, | !4!D,2 x2 | %483
 [!3!G,!2!B,]2 [!3!A,!2!C]2 | [!3!G,!2!B,]2 [!4!F,!3!A,]2 | !3!G,4 | !5!C,2 !5!B,, !4!D, | %487
 !3!G, !4!=F, !4!E, !4!D, | !5!C,2 x2 | !4!D,3 x | !5!B,, !4!D, !6!G,, x |][K:C][M:2/4] x4 | x4 | %493
[M:2/4] !5!C,4 | !5!C,4 | x x x2 | !3!G,2 x/ (!4!F,/ !4!D,) | !5!C,4 | !5!C,4 | x x x x | %500
 x x !5!C, x | x x x x | x2 !6!G,, x | x x x x | x2 !6!G,,2 | !5!C,3 x | x2 x2 | x2 x x | %508
 x x !6!G,,2 | !6!G,,3 !6!G,, | !5!C,3 x | !5!B,,3 x | !5!C,3 x || !5!A,,3 x | !4!D,3 x | %515
 !6!G,,3 !6!G,, | x x x x | !5!A,,3 x | !6!F,,3 !6!F,, | !6!G,,4 | x2 x2 |][M:4/4] x8 | x4 | %523
[M:4/4] !5!A,,4 || !6!^G,,4 !5!A,,4 | !4!D,4 !5!C,4 | !5!B,,4 !5!A,,4 | !6!E,,4 !5!A,,4 | %528
 !6!^G,,4 !5!A,,4 | !5!B,,4 !5!C,4 | !4!D,4 !4!E,4- | [!5!A,,!4!E,]2 x2 |] !5!A,,4 | %533
 !5!A,,4 !5!B,,4 | !5!C,4 !4!E,4 | !4!F,4 !4!^F,4 | !4!G,4 !6!G,,4 | !5!A,,4 !5!B,,4 | %538
 !5!C,4 !5!A,,4 | !6!F,,4 !6!G,,4 | !5!C,2 x2 !5!C,4 | !5!B,,4 !5!_B,,4 | !5!A,,4 !4!D,4 | %543
 !4!G,4 !3!A,4 | !4!D,4 !4!D,4 | !4!E,4 !6!^G,,4 | !5!A,,4 !6!G,,4 | !6!^F,,4 !6!=F,,4 | !6!E,,8- | %549
 x2 !5!B,,2 x2 !5!B,,2 | !6!E,,8- | !6!E,,8 | !6!E,,8- | !6!x8 | !6!E,,8- | !6!E,,8 | %556
 !6!E,,2 !4!E,2 !5!A,,4 |][K:G][M:6/8] x6 | x6 |:[K:G][M:6/8] !6!G,,3 !5!A,,3 | !5!B,,6 | %561
 !6!G,,3 !5!A,,3 | !5!B,,6 | !5!C,3 !5!B,,3 |1 !5!^A,,3 !5!B,,3 | !5!A,,3 !6!G,,3 | !6!F,,3 x3 :|2 %567
 !5!^A,,3 !5!B,,3 | !5!C,3 x3 | !3!G, !4!D, !5!B,, !6!G,,2 x |] %570
 !4!F, !5!D, !5!D, !3!G, !4!D, !4!D, | !3!^G, !4!D, !4!D, !3!A, !4!D, !4!D, | %572
 !3!G, !4!D, !4!D, !3!A, !4!D, !4!D, | !3!^A, !4!D, !4!D, !3!B, !4!D, !4!D, | %574
 !3!C !4!D, !4!D, !3!B, !4!D, !4!D, | !3!A, !4!D, !4!D, !3!G, !4!D, !4!D, | %576
 !3!A, !4!D, !4!D, !3!G, !4!D, !3!A, | !3!G, !4!D, !4!D, !4!F, !4!D, !4!D, | %578
 !4!F, !5!D, !5!D, !3!G, !4!D, !4!D, | x !4!=F,2 !3!A, !4!D, !4!D, | %580
 !3!G, !4!D, !4!D, !3!A, !4!D, !4!D, | !3!^A, !4!D, !4!D, !3!B, !4!D, !4!D, | %582
 !3!B, !4!D, !4!D, !3!G, !4!D, !3!B, | !3!A, !4!D, !4!D, !4!F, !4!D, !3!A, | %584
 !3!G, !4!D, !4!D, !3!G, !4!D, !4!D, | !4!F, !4!D, !4!D, !4!D,3 ||[K:D][M:2/4] x4 | x4 | %588
[K:D][M:2/4] x !4!F,3 | x !4!F,3 | x/ !4!F,3/2- !4!F,2- | !4!F,2 x2 | x !4!F,3 | x !4!F,3 | %594
 x x x x | !3!B, x x2 |] !3!^A,3 x | !3!B,3 !3!B, | x2 !3!B, x | !3!B,2 x2 | !3!^A,3 x | %601
 !3!B,2 x2 | !4!F,4 | x2 x2 | !4!D,4- | !4!D,4- | !4!x4 | !4!D,4 | x x x x | x x x x | x x x x | %611
 x x x x | x x !3!B, x | x x x x | x x !3!B, x | x x x x | x2 x2 | x2 x2 | !3!B,2 x2 | !3!^G,4 | %620
 !3!G,4 | x2 !3!B,2 | x2 x2 | x x x2 | x x !3!B, x | x2 x2 | x2 x2 | x2 x2 | x2 x2 | x2 x2 | %630
 x2 x2 | !4!F,2 x !4!F, | !3!G,4 | !4!F,7/2 !4!F,/ | !3!G,4 | x2 x2 |][K:C][M:6/8] x6 | x6 | %638
[M:6/8] !5!C, x2 !6!G,, x2 | !5!C, x2 !6!G,, x2 | !5!C, x2 !5!C, x2 | !5!B,,3 x2 x | %642
 !5!C, x2 !6!G,, x2 | !5!C, x2 !5!D, x2 | !4!E, x2 !5!C, x2 | !4!G, x2 x2 x | !5!C, x2 !6!G,, x2 | %647
 !5!C, x2 !6!G,, x2 | !5!C, x2 !5!C, x2 | !5!B,,3 x2 x | !5!C,3 [!4!E,!3!_B,]3 | %651
 !4!F,3- !4!F, !4!D, !4!F, | x3 [!6!G,,!4!F,]3 | [!5!C,!4!E,]3- [!5!C,!4!E,] x2 :: %654
 !3!B, !3!G, !3!G, !3!^A, !3!G, !3!G, | !3!B, !3!G, !3!G, x !3!G, !3!G, | %656
 !3!C !3!G, !3!G, !3!B, !3!G, !3!G, | !2!C !3!G, !3!G, x !3!G, !3!G, | %658
 !2!D !3!G, !3!G, !2!B, !3!G, !3!G, | !2!C !3!G, !3!G, !2!E !3!G, !3!G, | %660
 !2!D !3!G, !3!G, !2!C !3!G, !3!G, | x !3!G, !3!G, !3!G,{/!3!B,} !3!A, !3!G, | %662
 !2!D !3!G, !3!G, !2!^C !3!G, !3!G, | !2!D !3!G, !3!G, !2!^D !3!G, !3!G, | %664
 !3!x !3!G, !3!G, !2!x !3!G, !3!G, | !3!x !3!G, !3!G, !2!x !3!G, !3!G, | %666
 !2!F !3!G, !3!G, !2!F !3!G, !3!G, | !2!E !3!G, !3!G, !2!B, !3!G, !3!G, | %668
 !4!C !3!G, !3!G, [!3!G,-!2!C]3 | [!3!G,!2!B,]3 x !3!G, !4!F, :|[K:G][M:2/4] x4 | x4 | %672
[K:G] !6!E,,4- | !6!E,,4 | x4 | x4 | x4 | x4 | x4 | x4 | !6!E,,4- | !6!E,,4 | x4 | x4 | x4 | x4 | %686
 x4 | x4 | x4 | x4 | x4 | x4 | x4 | x4 | x4 | x4 | !6!E,,4- | !6!E,,4 | x4 | x4 | x4 | x4 | x4 | %703
 x4 | !6!E,,4- | !6!x4 | x4 | x4 | x4 | x4 | x4 | x4 | x4 | x4 | x4 | x4 | x4 | x4 | x4 | x4 |] %720
[K:A][M:2/4] x4 | x4 |[K:A][M:2/4] !5!A,,4 | !6!E,,4 | !5!A,,4 | !6!E,,4- | !6!x2 !5!A,,2 | %727
 !6!E,,4 | !5!A,,4 | !4!D,2 x !4!E, | x2 !4!E, !4!E, | !4!^E, !4!F, !4!^D, !4!D, | %732
 !4!E,2 !4!G, !4!G, | !4!=G, !4!F, !4!E, !4!E, | !4!^D, x !4!E, !4!^E, | !4!G, !4!F, !4!^D, !4!D, | %736
 !4!F, !4!E, !4!G,2 | x x x x | !4!E, !6!E,, x2 | !6!E,,4- | !6!E,,4- | !6!E,,4 | x2 x2 | %743
 !6!E,,4- | !6!E,,4- | !6!E,,4 | x2 !5!A,,2 | !6!E,,4 | !5!A,,4 | !6!E,,4 | x2 !5!A,,2 | !6!E,,4 | %752
 !5!A,,4 | !4!D,3 !4!E, | !5!A,, x3 |][K:F][M:4/4] x8 | x8 |[K:F][M:4/4] !4!D,4 !4!D,4- | %758
 !4!D,4 x2 x2 | !4!D,4 !4!D,4 | !5!A,,2 x6 | x2 x2 !5!A,,4 | x2 x2 !5!A,,4 | %763
 !5!A,,2 !5!^C,2 !4!D,4 | x8 | !4!D,4 !4!D,4- | !4!D,4 x2 x2 | !4!D,4 !4!D,4 | !5!A,,2 x6 | %769
 !5!A,,4 !5!A,,4 | !4!D,4 !4!D,4 | x8 | !4!D,2 x6 |] !5!A,,4 !5!A,,4- | !5!A,,8 | %775
 !5!A,,4 !5!A,,4- | !5!A,,8 | !5!A,,4 !5!A,,4 | x2 x2 !5!A,,4 | !5!A,,4 x4 | %780
 !4!A,2 !5!A,,2 !5!A,,2 !5!A,,2 | !5!B,,6 !5!B,,2 | !5!A,,6 !5!A,,2 | !5!B,,6 !5!B,,2 | %784
 !5!A,,6 !5!A,,2 |][K:D][M:6/8] x6 | x6 |:[K:D][M:6/8] x3 [!5!A,,!3!G,!2!C]3 | %788
 !6!E,, x/!8va(! !5!D,/ !4!G,/ !5!^B,,/ !4!F, !4!G, !4!^E,!8va)! | %789
 [!5!A,,!3!G,]2 [!5!A,,!3!G,] [!5!A,,!4!F,]2 [!5!A,,!4!F,] | %790
 [!5!A,,!4!E,] x/!8va(! !5!D,/ !5!C,/ !4!G,/ !5!^B,, !5!C, !5!D,!8va)! | !6!E,,3 !5!A,,2 !5!^A,, | %792
 [!5!B,,!4!F,] x/!8va(! !5!C,/ !4!G,/ !5!^B,,/ !4!F, !4!G, !2!B!8va)! | %793
 [!4!E,!3!A,]3 [!6!F,,!3!^G,]3 | !5!A,, x!8va(! [!5!F,!1!e] !4!^E,!8va)! x2 :: %795
 [!5!A,,!3!G,]2 [!5!A,,!3!G,] [!5!A,,-!3!G,]3 | %796
 !5!A,, x/!8va(! !5!D,/ !4!G,/ !5!^B,,/ !4!F,/ !5!C,/ !4!G,/ !4!F,/ !4!^E,!8va)! | %797
 [!5!A,,!3!G,]2 [!5!A,,!3!G,] [!5!A,,!3!G,!2!C]3 | %798
 !6!E,,/!8va(! !5!D,/ !2!B/ !5!C,/ !4!G,/ !5!^B,,/ !4!F,/ !5!C,/ !4!G,/ !4!F,/ !4!^E,!8va)! | %799
 x !4!D, !4!D, x3 | %800
 [!3!G,!2!B,]/!8va(! !4!G,/ !5!C,/ !4!G,/ !5!^B,,/ !4!F,/ !3!^B,/ !4!G,/ !3!B,/ !2!E/ !3!^A,!8va)! | %801
 x !5!A,,2 x3 | !6!E,,!8va(! !4!F,/ !4!G,/ !5!D,/ !6!^G,,/ !6!A,,3!8va)! :| %803
V:7
 x8 | x8 |:[M:4/4] x8 | x8 | x8 | x8 | x8 | x8 | x8 | x8 :: x8 | x8 | x8 | x8 | x8 | x8 | x8 | %17
 x8 :|[M:3/4] x6 | x6 |[M:3/4] x6 | x6 | x6 | x6 | x6 | x6 | x6 | x6 | x6 | x6 | x6 | x6 | x6 | %33
 x6 | x6 | x6 | x6 | x6 | x6 | x6 | x6 | x6 | x6 | x6 | x6 | x6 | x6 | x6 | x6 | x6 | x6 | x6 | %52
 x6 | x6 | x6 | x6 | x6 | x6 | x6 | x6 |][M:4/4] x8 | x8 | x8 | x8 | x8 | x8 | x8 | x8 | x8 | x8 | %70
 x8 | x8 | x8 | x8 | x8 | x8 | x8 | x8 | x8 | x8 | x8 | x8 | x8 | x8 | x8 | x8 |][K:Eb][M:3/4] x6 | %87
 x4 |:[M:3/4] x2 | x6 | x6 | x6 | x6 | x6 | x6 | x6 | x4 :: x2 | x6 | x6 | x6 | x6 | x6 | x6 | x6 | %105
 x6 | x6 | x6 | x6 | x6 | x6 | x6 | x6 | x6 :|[K:C][M:6/8] x6 | x6 |:[M:6/8] x6 | x6 | x6 | x6 | %120
 x6 | x6 | x6 | x6 :: x6 | x6 | x6 | x6 | x6 | x6 | x6 | x6 ::[K:A] x6 | x6 | x6 | x6 | x6 | x6 | %138
 x6 | x6 :: x6 | x6 | x6 | x6 | x6 | x6 | x6 | x6 | x6 | x6 | x6 | x6 | x6 | x6 | x6 | x6 :| %156
[K:C][M:2/4] x4 | x3 |:[M:2/4] x | x4 | x4 | x4 | x4 | x4 | x4 | x4 | x3 :: x | x4 | x4 | x4 | x4 | %172
 x4 | x4 | x4 | !5!C, [!4!E,!3!G,] x :: x | x4 | x4 | x4 | x4 | x4 | x4 | x4 | x3 :: x | x4 | x4 | %188
 x4 | x4 | x4 | x4 | x4 | x3 :|[M:3/8] x3 | x2 |:[M:3/8] x | x3 | x3 | x3 | x3 | x3 | x3 | x3 | %204
 x2 :: x | x3 | x3 | x3 | x3 | x3 | x3 | x3 | x2 :: x | x3 | x3 | x x x | x3 | x3 | x3 | x x x | %222
 x2 :: x | x3 | x3 | x3 | x3 | x3 | x3 | x3 | x3 | x3 | x3 | x x x | x3 | x3 | x3 | x3 | x2 :| %240
[M:4/4] x8 | x8 |:[M:4/4] x8 | x8 | x8 | x8 | x8 | x8 | x8 | x8 :: x8 | x8 | x8 | x8 | x8 | x8 | %256
 x8 | x8 :|[M:4/4] x8 | x8 |:[M:4/4] x8 | x8 | x8 | x8 | x8 | x8 | x8 | x8 :: x8 | x8 | x8 | x8 | %272
 x8 | x8 | x8 | x8 :|[M:4/4] x8 | x6 |:[M:4/4] x2 | x8 | x8 | x8 | x8 | x8 | x8 | x8 | x6 :: x2 | %288
 x8 | x8 | x8 | x8 | x8 | x8 | x8 | x8 :|[K:G][M:6/8] x6 | x6 |[K:G][M:6/8] x6 | x6 | x6 | x6 | %302
 x6 | x3 !4!D,3 | x6 | x6 |] x6 | x6 | x6 | x6 | x6 | x6 | x6 | x6 | x6 | x6 | x6 | x6 | x6 | x6 | %320
 x6 | x6 | x6 | x6 | x6 | x6 | x6 | x6 | x6 | x6 |][M:2/4] x4 | x3 |:[K:G][M:2/4] x | x4 | x4 | %335
 x4 | x4 | x4 | x4 | x4 | x3 :: x | x4 | x4 | x4 | x4 | x4 | x4 | x4 | x4 | x4 | x4 | x4 | x4 | %354
 x4 | x4 | x4 | x3 :|[K:C][M:2/4] x4 | x4 |:[M:2/4] x4 | x4 | x4 | x4 | x4 | x4 | x4 | x4 | x4 | %369
 x4 | x4 | x4 | x4 | x4 | x4 | x4 | x4 | x4 | x4 | x4 | x4 | x4 | x4 | x4 :|[K:G][M:3/4] x6 | x6 |: %386
[K:G][M:3/4] x6 | x6 | x6 | x6 | x6 | x6 | x6 |1 x6 :|2 x6 |: x6 | x6 | x6 | x6 | x6 | x6 | x6 | %402
 x6 | x6 | x6 | x6 | x6 | x6 | x6 | x6 | x6 :|[K:E][M:6/8] x6 | x6 |:[K:E][M:6/8] x6 | x6 | x6 | %416
 x6 | x6 | x6 | x6 | x6 :: x6 | x6 | x6 | x6 | x6 | x6 | x6 | x6 | x6 | x6 | x6 | x6 | x6 | x6 | %435
 x6 | x6 :|[K:G][M:2/4] x4 | x4 |[K:G][M:2/4] x4 | x4 | x4 | x4 | x4 | x4 | x4 | x4 | x4 | x4 | %449
 x4 | x4 | x4 | x4 | x4 | x4 || x4 | x4 | x4 | x4 | x4 | x4 | x4 | x4 | x4 | x4 | x4 | x4 | x4 | %468
 x4 | x4 | x4 | x4 | x4 | x4 | x4 | x4 | x4 | x4 | x4 | x4 | x4 | x4 | x4 | x4 | x4 | %485
 !4!E,2 !4!D,2 | x4 | x4 | x4 | x4 | x4 |][K:C][M:2/4] x4 | x4 |[M:2/4] x4 | x4 | x4 | x4 | x4 | %498
 x4 | x4 | x4 | x4 | x4 | x4 | x4 | x4 | x4 | x4 | x4 | x4 | x4 | x4 | x4 || x4 | x4 | x4 | x4 | %517
 x4 | x4 | x4 | x4 |][M:4/4] x8 | x4 |[M:4/4] x4 || x8 | x8 | x8 | x8 | x8 | x8 | x8 | x4 |] x4 | %533
 x8 | x8 | x8 | x8 | x8 | x8 | x8 | x8 | x8 | x8 | x6 x2 | x8 | x8 | x8 | x8 | x8 | !6!x8 | x8 | %551
 x8 | x8 | x8 | x8 | x8 | x8 |][K:G][M:6/8] x6 | x6 |:[K:G][M:6/8] x6 | x6 | x6 | x6 | x6 |1 x6 | %565
 x6 | x6 :|2 x6 | x6 | x6 |] x6 | x6 | x6 | x6 | x6 | x6 | x6 | x6 | x6 | x6 | x6 | x6 | x6 | x6 | %584
 x6 | x6 ||[K:D][M:2/4] x4 | x4 |[K:D][M:2/4] x4 | x4 | x4 | x4 | x4 | x4 | x4 | x4 |] x4 | x4 | %598
 x4 | x4 | x4 | x4 | x4 | x4 | x2 x2 | x4 | x4 | x4 | x4 | x4 | x4 | x4 | x4 | x4 | x4 | x4 | x4 | %617
 x4 | x4 | x4 | x4 | x4 | x4 | x4 | x4 | x4 | x4 | x4 | x4 | x4 | x4 | x4 | x4 | x4 | x4 | x4 |] %636
[K:C][M:6/8] x6 | x6 |[M:6/8] x6 | x6 | x6 | x6 | x6 | x6 | x6 | x6 | x6 | x6 | x6 | x6 | x6 | %651
 !3!A,6 | x6 | x6 :: x6 | x6 | x6 | x6 | x6 | x6 | x6 | x6 | x6 | x6 | x6 | x6 | x6 | x6 | x6 | %669
 x6 :|[K:G][M:2/4] x4 | x4 |[K:G] x4 | x4 | x4 | x4 | x4 | x4 | x4 | x4 | x4 | x4 | x4 | x4 | x4 | %685
 x4 | x4 | x4 | x4 | x4 | x4 | x4 | x4 | x4 | x4 | x4 | x4 | x4 | x4 | x4 | x4 | x4 | x4 | x4 | %704
 x4 | x4 | x4 | x4 | x4 | x4 | x4 | x4 | x4 | x4 | x4 | x4 | x4 | x4 | x4 | x4 |][K:A][M:2/4] x4 | %721
 x4 |[K:A][M:2/4] x4 | x4 | x4 | x4 | x4 | x4 | x4 | x4 | x4 | x4 | x4 | x4 | x4 | x4 | x4 | x4 | %738
 x4 | x4 | x4 | x4 | x4 | x4 | x4 | x4 | x4 | x4 | x4 | x4 | x4 | x4 | x4 | x4 | x4 |] %755
[K:F][M:4/4] x8 | x8 |[K:F][M:4/4] x8 | x8 | x6 !2!D2 | x4 !2!^C2 x2 | x8 | x8 | x8 | x8 | x8 | %766
 x8 | x6 !2!D2 | x4 !2!^C2 x2 | x8 | x8 | x8 | x8 |] x8 | x8 | x8 | x8 | x8 | x8 | x8 | x8 | x8 | %782
 x8 | x8 | x8 |][K:D][M:6/8] x6 | x6 |:[K:D][M:6/8] x6 | x3/2!8va(! x9/2!8va)! | x6 | %790
 x3/2!8va(! x9/2!8va)! | x6 | x3/2!8va(! x9/2!8va)! | x6 | x2!8va(! x2!8va)! x2 :: x6 | %796
 x3/2!8va(! x9/2!8va)! | x6 | x/!8va(! x11/2!8va)! | x6 | x/!8va(! x11/2!8va)! | x6 | %802
 x!8va(! x5!8va)! :| %803
V:8
 x8 | x8 |:[M:4/4] x8 | x8 | x8 | x8 | x8 | x8 | x8 | x8 :: x8 | x8 | x8 | x8 | x8 | x8 | x8 | %17
 x8 :|[M:3/4] x6 | x6 |[M:3/4] x6 | x6 | x6 | x6 | x6 | x6 | x6 | x6 | x6 | x6 | x6 | x6 | x6 | %33
 x6 | x6 | x6 | x6 | x6 | x6 | x6 | x6 | x6 | x6 | x6 | x6 | x6 | x6 | x6 | x6 | x6 | x6 | x6 | %52
 x6 | x6 | x6 | x6 | x6 | x6 | x6 | x6 |][M:4/4] x8 | x8 | x8 | x8 | x8 | x8 | x8 | x8 | x8 | x8 | %70
 x8 | x8 | x8 | x8 | x8 | x8 | x8 | x8 | x8 | x8 | x8 | x8 | x8 | x8 | x8 | x8 |][K:Eb][M:3/4] x6 | %87
 x4 |:[M:3/4] x2 | x6 | x6 | x6 | x6 | x6 | x6 | x6 | x4 :: x2 | x6 | x6 | x6 | x6 | x6 | x6 | x6 | %105
 x6 | x6 | x6 | x6 | x6 | x6 | x6 | x6 | x6 :|[K:C][M:6/8] x6 | x6 |:[M:6/8] x6 | x6 | x6 | x6 | %120
 x6 | x6 | x6 | x6 :: x6 | x6 | x6 | x6 | x6 | x6 | x6 | x6 ::[K:A] x6 | x6 | x6 | x6 | x6 | x6 | %138
 x6 | x6 :: x6 | x6 | x6 | x6 | x6 | x6 | x6 | x6 | x6 | x6 | x6 | x6 | x6 | x6 | x6 | x6 :| %156
[K:C][M:2/4] x4 | x3 |:[M:2/4] x | x4 | x4 | x4 | x4 | x4 | x4 | x4 | x3 :: x | x4 | x4 | x4 | x4 | %172
 x4 | x4 | x4 | x3 :: x | x4 | x4 | x4 | x4 | x4 | x4 | x4 | x3 :: x | x4 | x4 | x4 | x4 | x4 | %191
 x4 | x4 | x3 :|[M:3/8] x3 | x2 |:[M:3/8] x | x3 | x3 | x3 | x3 | x3 | x3 | x3 | x2 :: x | x3 | %207
 x3 | x3 | x3 | x3 | x3 | x3 | x2 :: x | x3 | x3 | x3 | x3 | x3 | x3 | x3 | x2 :: x | x3 | x3 | %226
 x3 | x3 | x3 | x3 | x3 | x3 | x3 | x3 | x3 | x3 | x3 | x3 | x3 | x2 :|[M:4/4] x8 | x8 |: %242
[M:4/4] x2 !3!G,2 !2!C4 | x2 !3!G,2 !2!B,4 | x2 !2!C4 x2 | x8 | x2 !3!G,2 !2!C2 !3!G,2 | %247
 x2 !3!G,2 !2!B,2 !2!D2 | x2 !2!C2 x2 !2!C2 | !2!B,6 x2 :: x2 !3!G,4 !3!G,2 | x2 !3!G,4 !3!G,2 | %252
 x2 !3!G,4 !3!G,2 | x2 !3!G,2 !2!C4 | x6 !2!D !2!=C | x8 | x8 | x8 :|[M:4/4] x8 | x8 |: %260
[M:4/4] x !3!G, !2!C !3!G, !2!x !3!G, !2!C !3!G, | x !3!G, !2!B, !3!G, !2!x !3!G, !2!B, !3!G, | %262
 !6!x !3!G, !2!x !3!G, !5!x !3!G, x !3!G, | x8 | x !3!G, x !3!G, !2!x !3!G, !2!C !3!G, | %265
 x !3!G, x !3!G, !2!x !3!G, !2!D !3!G, | x !3!G,2 !2!C2 !2!C2 !2!C | x !2!B, x !2!B, x4 :: %268
 x !3!G, !2!D !3!G, !2!x !3!G, !2!D !3!G, | x !3!G, !2!C !3!G, !2!x !3!G, !2!C !3!G, | %270
 x !3!G, x !3!G, !2!x !3!G, !2!D !3!G, | x !3!G, x !3!G, !2!x !3!G, !2!C !1!E | %272
 !6!x !2!^C !2!x !2!C !5!x !2!C !2!D !2!=C | !4!x !2!B, !2!x !2!B, !4!x !2!B, !2!C !2!B, | %274
 !5!x !3!A, !3!x !3!A, !3!G,4 | x8 :|[M:4/4] x8 | x6 |:[M:4/4] x2 | x8 | x8 | x8 | x8 | x8 | x8 | %285
 x8 | x6 :: x2 | x8 | x8 | x8 | x8 | x8 | x !3!A,3- !3!A,4 | x8 | x8 :|[K:G][M:6/8] x6 | x6 | %298
[K:G][M:6/8] x6 | x6 | x6 | x6 | x6 | x6 | x6 | x6 |] x6 | x6 | x6 | x6 | x6 | x6 | x6 | x6 | x6 | %315
 x6 | x6 | x6 | x6 | x6 | x6 | x6 | x6 | x6 | x6 | x6 | x6 | x6 | x6 | x6 |][M:2/4] x4 | x3 |: %332
[K:G][M:2/4] x | x4 | x4 | x4 | x4 | x4 | x4 | x4 | !5!x !3!A, x :: x | x4 | x4 | x4 | x4 | x4 | %347
 x4 | x4 | x4 | x4 | x4 | x4 | x4 | x4 | !2!x !3!G, !5!C,2 | x4 | x3 :|[K:C][M:2/4] x4 | x4 |: %360
[M:2/4] x4 | x4 | x4 | x2 !5!B,, !3!G, | !6!x !3!A, !3!G, !4!F, | x4 | x4 | x4 | x !3!G,2 !3!G, | %369
 x !3!G,2 !3!G, | x !3!G,2 !3!G, | x !3!G,2 !3!G, | x !3!G,2 !3!G, | x !3!G, !3!^G,2 | !3!A,3 x | %375
 x !3!G, !3!G, x | x4 | x4 | x4 | x4 | !6!x !3!A, !3!G, !4!F, | x4 | x4 | !4!E, !3!G, x2 :| %384
[K:G][M:3/4] x6 | x6 |:[K:G][M:3/4] !3!G,4 !3!G,2 | x6 | x6 | x6 | !3!G,4 !3!G,2 | !3!A,2 !3!G,4 | %392
 x2 !4!E,2 !4!F,2 |1 x6 :|2 x6 |: !2!B,6 | !2!C2 !3!B,2 !3!A,2 | x !3!A,2 !3!A, [!4!E,!3!^G,]2 | %398
 x !4!E, !3!^G, !4!E, !3!A,2 | x6 | x6 | x6 | x6 | !3!G,4 !3!G,2 | x6 | x6 | x6 | !3!G,4 !3!^G,2- | %408
 !3!G, !3!^G, !3!A,2 !5!A,,2 | !3!G,2 !2!B,2 [!4!^D,!3!A,]2 | x6 :|[K:E][M:6/8] x6 | x6 |: %413
[K:E][M:6/8] x6 | x6 | x6 | x6 | x3 !3!G,3 | x6 | x6 | x6 :: x6 | x6 | x6 | x6 | x6 | x6 | x6 | %428
 x6 | x6 | x6 | x6 | x6 | x3 !3!G,3 | x6 | x6 | x6 :|[K:G][M:2/4] x4 | x4 |[K:G][M:2/4] x4 | x4 | %441
 x4 | x4 | x4 | x4 | x4 | x4 | x4 | x4 | !3!G,4 | x4 | x4 | x4 | !5!x !3!G, !3!A, !5!C, | x4 || %455
 x4 | x4 | x4 | x !2!^C !2!D !3!A, | x2 !2!^C2 | x !2!D !2!D !2!D | x4 | x !3!A,2 x | x4 | x4 | %465
 x4 | x4 | x4 | [!3!G,!2!^C]4 | x4 | [!3!A,!2!=C]4 | x4 | x4 | x4 | x4 | x4 | x4 | !3!G,4 | x4 | %479
 x4 | x4 | x4 | !5!x !3!G, !4!F, !4!D, | x4 | x4 | x4 | x4 | x4 | x4 | !5!x !3!G, x !5!C, | x4 |] %491
[K:C][M:2/4] x4 | x4 |[M:2/4] x x x x | x x x x | x4 | x4 | x x x x | x x x x | x4 | x4 | x4 | x4 | %503
 x4 | x4 | x x x2 | x4 | x4 | x4 | x x x2 | x x x2 | x x x2 | x x x2 || x x x2 | x x x2 | x x x2 | %516
 x4 | x x x2 | x x x2 | x x x x | x4 |][M:4/4] x8 | x4 |[M:4/4] x4 || x8 | x8 | x8 | x8 | x8 | x8 | %530
 x6 x2 | x4 |] x4 | x8 | x8 | x8 | x8 | x8 | x8 | x8 | x8 | x8 | x8 | x8 | x !2!^C !2!D2 x4 | x8 | %546
 x8 | x8 | x2 !5!B,,2 x2 !5!B,,2 | x8 | x2 !5!B,,2 x2 !5!B,,2 | x2 !5!B,,2 x2 !5!B,,2 | %552
 x2 !5!B,,2 x2 !5!B,,2 | x2 !5!B,,2 x2 !5!B,,2 | x2 !5!B,,2 x2 !5!B,,2 | x2 !5!B,,2 x2 !5!B,,2 | %556
 x8 |][K:G][M:6/8] x6 | x6 |:[K:G][M:6/8] x !3!G, !3!G, !6!x !3!G, !3!G, | %560
 !3!x !3!G, !3!G, !2!x !3!G, !3!G, | !3!x !3!G, !3!G, !3!x !3!G, !3!G, | !3!x !3!G, !3!G, !3!G,3 | %563
 !2!x !3!G, !3!G, !3!x !3!G, !3!G, |1 !3!x !3!G, !3!G, !3!x !4!D, !4!D,- | %565
 !4!D, !4!E, !4!F, !3!G, !4!D, !4!D, | !4!x !4!D, !4!D, x2 x :|2 !3!x !3!G, !3!G, x !3!G, x | %568
 !6!x !3!G, !2!C- [!4!D,!2!C]3 | x6 |] !5!x3 !4!x3 | !4!x3 !4!x3 | !4!x3 !4!x3 | !4!x3 !4!x3 | %574
 x3 !4!x3 | !4!x3 !4!x3 | !4!x3 x x2 | !4!x3 x3 | !5!x3 !4!x3 | x3 !4!x3 | !4!x3 !4!x3 | x3 x3 | %582
 !4!x3 x3 | !4!x3 x3 | !4!x3 !4!x3 | x6 ||[K:D][M:2/4] x4 | x4 |[K:D][M:2/4] x4 | x4 | x4 | x4 | %592
 x4 | x4 | x4 | x4 |] x x x2 | x x x2 | x x x2 | x4 | x x x2 | x x x !3!B, | x x !3!B, x | x4 | %604
 x x2 x | x x x x | x x x x | x x x x | x4 | x4 | x4 | x4 | x4 | x4 | x4 | x4 | x4 | x4 | x4 | %619
 x x/ !2!D/ x/ !2!D/ x/ !2!D/ | x x/ !2!C/ x/ !2!C/ x/ !2!C/ | x4 | x4 | x4 | x4 | x4 | x4 | x4 | %628
 x4 | x4 | x4 | x4 | x x x x | x4 | x x x x | x4 |][K:C][M:6/8] x6 | x6 | %638
[M:6/8] !4!E, !3!G, !3!G, !4!F, !3!G, !3!G, | !4!E, !3!G, !3!G, !4!F, !3!G, !3!G, | %640
 !4!E, !3!G, !3!G, !2!C !3!G, !3!G, | !2!D !3!G, !3!G, !3!G,3 | %642
 !4!E, !3!G, !3!G, !4!F, !3!G, !3!G, | !4!E, !3!G, !3!G, !4!F, !3!G, !3!G, | %644
 x !3!G, !3!G, !2!C !3!G, !3!G, | x6 | !4!E, !3!G, !3!G, !4!F, !3!G, !3!G, | %647
 !4!E, !3!G, !3!G, !4!F, !3!G, !3!G, | !4!E, !3!G, !3!G, !2!C !3!G, !3!G, | %649
 !2!D !3!G, !3!G, !3!G,3 | x !3!G, !2!C !2!x !2!C !2!C | !5!x !2!C !2!^C x3 | %652
 x !3!G, !3!G, !3!x !3!G, x | x6 :: x6 | x6 | x6 | x6 | !3!x3 !3!x3 | !3!x3 !3!x3 | !3!x3 !3!x3 | %661
 x6 | !3!x3 !3!x3 | !3!x3 !3!x3 | !2!E6 | !2!E6 | !3!x3 !3!x3 | !3!x3 !3!x3 | x6 | x6 :| %670
[K:G][M:2/4] x4 | x4 |[K:G] !2!x/ !3!G,/ !2!B, !2!x/ !3!G,/ !2!B, | %673
 !2!x/ !3!G,/ !2!B, !2!x/ !3!G,/ !2!B, | !2!x/ !3!A,/ !2!B, !2!x/ !3!A,/ !2!B, | %675
 !2!x/ !3!G,/ !2!B, !2!x/ !4!^D,/ !2!B, | !2!x/ !3!G,/ !2!B, !2!x/ !3!G,/ !2!B, | %677
 !2!x/ !4!F,/ !2!B, !2!x/ !4!^D,/ !2!B, | !2!x/ !4!E,/ !2!B, !2!x/ !5!C,/ !3!^A, | %679
 !5!B,,2 !3!B, x | !2!x/ !3!G,/ !2!B, !2!x/ !3!G,/ !2!B, | !2!x/ !3!G,/ !2!B, !2!x/ !3!G,/ !2!B, | %682
 !2!x/ !3!A,/ !2!B, !2!x/ !3!A,/ !2!B, | !2!x/ !3!G,/ !2!B, !2!x/ !4!^D,/ !2!B, | %684
 !2!x/ !4!E,/ !2!B, !2!x/ !4!E,/ !2!D | !2!x/ !5!A,,/ !3!C !2!x/ !5!A,,/ !3!A, | %686
 !2!x/ !5!B,,/ !3!G, !2!x/ !5!B,,/ !4!^D, | x/ !5!B,,/ !4!E,/ !5!B,,/ !6!E,, x | %688
 !2!x/ !4!^D,/ !2!B, !2!x/ !4!F,/ !2!B, | !2!x/ !4!E,/ !2!B, !2!x/ !3!G,/ !2!B, | %690
 !3!x/ !4!F,/ !3!B, !2!x/ !3!A,/ !2!B, | !2!x/ !3!G,/ !2!B, !2!x/ !4!E,/ !2!B, | %692
 !2!x/ !4!^D,/ !2!B, !2!x/ !4!F,/ !2!B, | !2!x/ !4!E,/ !2!B, !2!x/ !4!D,/ !2!B, | %694
 !2!x/ !5!C,/ !2!B, !2!x/ !5!C,/ !3!^A, | x/ !5!B,,/ !3!B,/ !4!F,/ !5!B,,2 | %696
 !2!x/ !3!G,/ !2!B, !2!x/ !3!G,/ !2!B, | !2!x/ !3!G,/ !2!B, !2!x/ !3!G,/ !2!B, | %698
 !2!x/ !3!A,/ !2!B, !2!x/ !3!A,/ !2!B, | !2!x/ !3!G,/ !2!B, !2!x/ !4!^D,/ !2!B, | %700
 !2!x/ !3!G,/ !2!B, !2!x/ !3!G,/ !2!B, | !2!x/ !4!F,/ !2!B, !2!x/ !4!^D,/ !2!B, | %702
 !2!x/ !4!E,/ !2!B, !2!x/ !5!C,/ !3!^A, | !5!B,,2 !3!B, x | !2!x/ !3!G,/ !2!B, !2!x/ !3!G,/ !2!B, | %705
 !2!x/ !3!G,/ !2!B, !2!x/ !3!G,/ !2!B, | !2!x/ !3!A,/ !2!B, !2!x/ !3!A,/ !2!B, | %707
 !2!x/ !3!G,/ !2!B, !2!x/ !4!^D,/ !2!B, | !2!x/ !4!E,/ !2!B, !2!x/ !4!E,/ !2!D | %709
 !2!x/ !5!A,,/ !3!C !2!x/ !5!A,,/ !4!A, | !2!x/ !5!B,,/ !3!G, !2!x/ !5!B,,/ !3!A, | %711
 !2!x/ !4!E,/ !3!G, !2!x/ !4!E,/ !3!G, | !2!x/ !4!^D,/ !3!A, !2!x/ !4!D,/ !3!A, | %713
 !2!x/ !4!E,/ !3!G, !2!x/ !4!E,/ !3!G, | !2!x/ !4!^D,/ !3!A, !2!x/ !4!D,/ !3!A, | %715
 !1!E/ !4!E,/ !3!G, !2!x/ !4!E,/ !3!G, | x3/2 !2!B,/ !2!x/ !4!E,/ !3!G, | %717
 !6!E,,3/2 !2!B,/ !2!x/ !4!E,/ !3!G, | !6!E,,3/2 !2!B,/ !2!x/ !4!E,/ !3!G, | x4 |][K:A][M:2/4] x4 | %721
 x4 |[K:A][M:2/4] x2 x/ !3!C/ x/ !3!C/ | x/ !3!D/ x/ !2!B,/ x/ !4!G,/ x/ !3!D/ | %724
 x/ !3!D/ x/ !3!C/ x/ !3!E/ x/ !3!^D/ | x/ !3!=D/ x/ !2!B,/ x/ !3!C/ x/ !3!D/ | %726
 x/ !2!B,/ x/ !3!D/ x/ !3!C/ x/ !3!C/ | x/ !3!D/ x/ !2!B,/ x/ !4!G,/ x/ !3!D/ | %728
 x/ !3!D/ x/ !3!C/ x/ !3!E/ x/ !2!^E/ | x/ !2!F/ x/ !2!F/ x/ !2!B,/ x/ !2!D/ | %730
 !5!A,,/ !2!C/ !3!A,/ x/ x/ !2!B,/ x/ !2!B,/ | %731
 !2!x/ !2!B,/ !2!x/ !2!B,/ !2!x/ !2!B,/ !2!x/ !2!B,/ | x/ !2!B,/ x/ !2!B,/ x/ !2!B,/ !2!x/ !2!B,/ | %733
 !2!x/ !2!B,/ !2!x/ !2!B,/ !2!x/ !2!B,/ x/ !2!B,/ | x/ !2!B,/ !5!B,,/ !2!B,/ x/ !2!B,/ x/ !2!B,/ | %735
 !2!x/ !2!B,/ !2!x/ !2!B,/ !2!x/ !2!B,/ !2!x/ !2!B,/ | %736
 !2!x/ !2!B,/ !2!x/ !2!B,/ x/ !2!B,/ !3!D/ !2!B,/ | %737
 !4!A,/ !3!C/ !5!A,,/ !3!C/ !5!B,,/ !2!B,/ !4!^D,/ !3!A,/ | x/ !3!G,/ x x2 | x x x x | x x x x | %741
 x x x x | x4 | x !4!E, !3!G, !3!B, | !3!A, x !3!A, !3!=C | !3!B, !3!G, !3!A, !4!=F, | %746
 !4!E,2 x/ !3!C/ x/ !3!C/ | x/ !3!D/ x/ !2!B,/ x/ !4!G,/ x/ !3!D/ | %748
 x/ !3!D/ x/ !3!C/ x/ !3!E/ x/ !3!^D/ | x/ !3!=D/ x/ !3!B,/ x/ !3!C/ x/ !3!D/ | %750
 x/ !3!D/ x/ !3!D/ x/ !3!C/ x/ !3!C/ | x/ !3!D/ !1!G/ !2!B,/ x/ !4!G,/ x/ !3!D/ | %752
 x/ !3!D/ x/ !3!C/ x/ !3!E/ x/ !2!^E/ | x/ !2!F/ x/ !2!F/ x/ !2!B,/ x/ !2!D/ | x/ !2!C/ !3!A, x2 |] %755
[K:F][M:4/4] x8 | x8 |[K:F][M:4/4] x2 !3!A,4 !3!A,2 | !3!A,4 !4!F,2 !3!A,2 | x2 !3!A,4 x2 | %760
 x2 !3!A,4 !3!A,2 | x8 | x8 | x8 | x8 | x2 !3!A,4 !3!A,2 | !3!A,4 !4!F,2 !3!A,2 | x2 !3!A,4 x2 | %768
 x2 !3!A,4 !3!A,2 | x2 !3!A,4 x2 | x2 !3!A,4 x2 | !3!G,4 !3!A,4 | x8 |] x2 x2 x4 | %774
 x2 !4!^G,2 !2!=B,2 !4!G,2 | x2 x2 x4 | x2 !4!^G,2 !2!=B,2 !4!G,2 | x2 x2 !2!C4 | x8 | %779
 x2 !3!D2 x4 | x8 | x2 x2 !3!G,4 | x2 x2 [!3!A,!2!C]4 | x4 !3!G,4 | x2 x2 [!3!A,!2!C]4 |] %785
[K:D][M:6/8] x6 | x6 |:[K:D][M:6/8] x6 | x3/2!8va(! x9/2!8va)! | x6 | x3/2!8va(! x9/2!8va)! | x6 | %792
 x3/2!8va(! x9/2!8va)! | x6 | x2!8va(! x2!8va)! x2 :: x6 | x3/2!8va(! x9/2!8va)! | x6 | %798
 x/!8va(! x11/2!8va)! | [!3!A,!2!=C]2 [!3!A,!2!C] [!4!D,!3!A,!2!C]3 | x/!8va(! x11/2!8va)! | %801
 x2 !3!A, !3!^G,2 [!3!=G,!2!C] | x!8va(! x5!8va)! :| %803
V:9
 F4 F4 | F2 F2 F2 F2 |:[M:4/4] z8 | z8 | z8 | z8 | z8 | z8 | z8 | z8 :: z8 | z8 | z8 | z8 | z8 | %15
 z8 | z8 | z8 :|[M:3/4] F2 F2 F2 | F2 F2 F2 |[M:3/4] z6 | z6 | z6 | z6 | z6 | z6 | z6 | z6 | z6 | %29
 z6 | z6 | z6 | z6 | z6 | z6 | z6 | z6 | z6 | z6 | z6 | z6 | z6 | z6 | z6 | z6 | z6 | z6 | z6 | %48
 z6 | z6 | z6 | z6 | z6 | z6 | z6 | z6 | z6 | z6 | z6 | z6 |][M:4/4] F4 F4 | F2 F2 F2 F2 | z8 | %63
 z8 | z8 | z8 | z8 | z8 | z8 | z8 | z8 | z8 | z8 | z8 | z8 | z8 | z8 | z8 | z8 | z8 | z8 | z8 | %82
 z8 | z8 | z8 | z8 |][M:3/4] F2 F2 F2 | F2 F2 |:[M:3/4] z2 | z6 | z6 | z6 | z6 | z6 | z6 | z6 | %96
 z4 :: z2 | z6 | z6 | z6 | z6 | z6 | z6 | z6 | z6 | z6 | z6 | z6 | z6 | z6 | z6 | z6 | z6 :| %114
[M:6/8] F3 F3 | F F F F F F |:[M:6/8] z6 | z6 | z6 | z6 | z6 | z6 | z6 | z6 :: z6 | z6 | z6 | z6 | %128
 z6 | z6 | z6 | z6 :: z6 | z6 | z6 | z6 | z6 | z6 | z6 | z6 :: z6 | z6 | z6 | z6 | z6 | z6 | z6 | %147
 z6 | z6 | z6 | z6 | z6 | z6 | z6 | z6 | z6 :|[M:2/4] F2 F2 | F2 z |:[M:2/4] z | z4 | z4 | z4 | %162
 z4 | z4 | z4 | z4 | z2 z :: z | z4 | z4 | z4 | z4 | z4 | z4 | z4 | z2 z :: z | z4 | z4 | z4 | z4 | %181
 z4 | z4 | z4 | z2 z :: z | z4 | z4 | z4 | z4 | z4 | z4 | z4 | z2 z :|[M:3/8] F3 | F F |: %196
[M:3/8] z | z3 | z3 | z3 | z3 | z3 | z3 | z3 | z2 :: z | z3 | z3 | z3 | z3 | z3 | z3 | z3 | z2 :: %214
 z | z3 | z3 | z3 | z3 | z3 | z3 | z3 | z2 :: z | z3 | z3 | z3 | z3 | z3 | z3 | z3 | z3 | z3 | z3 | %234
 z3 | z3 | z3 | z3 | z3 | z2 :|[M:4/4] F4 F4 | F2 F2 F2 F2 |:[M:4/4] z8 | z8 | z8 | z8 | z8 | z8 | %248
 z8 | z8 :: z8 | z8 | z8 | z8 | z8 | z8 | z8 | z8 :|[M:4/4] F4 F4 | F2 F2 F2 F2 |:[M:4/4] z8 | z8 | %262
 z8 | z8 | z8 | z8 | z8 | z8 :: z8 | z8 | z8 | z8 | z8 | z8 | z8 | z8 :|[M:4/4] F4 F4 | F2 F2 F2 |: %278
[M:4/4] z2 | z8 | z8 | z8 | z8 | z8 | z8 | z8 | z4 z2 :: z2 | z8 | z8 | z8 | z8 | z8 | z8 | z8 | %295
 z8 :|[M:6/8] F3 F3 | F F F F F F |[M:6/8] z6 | z6 | z6 | z6 | z6 | z6 | z6 | z6 |] z6 | z6 | z6 | %309
 z6 | z6 | z6 | z6 | z6 | z6 | z6 | z6 | z6 | z6 | z6 | z6 | z6 | z6 | z6 | z6 | z6 | z6 | z6 | %328
 z6 | z6 |][M:2/4] F2 F2 | F2 F |:[M:2/4] z | z4 | z4 | z4 | z4 | z4 | z4 | z4 | z2 z :: z | z4 | %343
 z4 | z4 | z4 | z4 | z4 | z4 | z4 | z4 | z4 | z4 | z4 | z4 | z4 | z4 | z2 z :|[M:2/4] F4 | F2 F2 |: %360
[M:2/4] z4 | z4 | z4 | z4 | z4 | z4 | z4 | z4 | z4 | z4 | z4 | z4 | z4 | z4 | z4 | z4 | z4 | z4 | %378
 z4 | z4 | z4 | z4 | z4 | z4 :|[M:3/4] F2 F2 F2 | F2 F2 F2 |:[M:3/4] z6 | z6 | z6 | z6 | z6 | z6 | %392
 z6 |1 z6 :|2 z6 |: z6 | z6 | z6 | z6 | z6 | z6 | z6 | z6 | z6 | z6 | z6 | z6 | z6 | z6 | z6 | %410
 z6 :|[M:6/8] F3 F3 | F F F F F F |:[M:6/8] z6 | z6 | z6 | z6 | z6 | z6 | z6 | z6 :: z6 | z6 | z6 | %424
 z6 | z6 | z6 | z6 | z6 | z6 | z6 | z6 | z6 | z6 | z6 | z6 | z6 :|[M:2/4] F2 F2 | F2 F2 | %439
[M:2/4] z4 | z4 | z4 | z4 | z4 | z4 | z4 | z4 | z4 | z4 | z4 | z4 | z4 | z4 | z4 | z4 || z4 | z4 | %457
 z4 | z4 | z4 | z4 | z4 | z4 | z4 | z4 | z4 | z4 | z4 | z4 | z4 | z4 | z4 | z4 | z4 | z4 | z4 | %476
 z4 | z4 | z4 | z4 | z4 | z4 | z4 | z4 | z4 | z4 | z4 | z4 | z4 | z4 | z4 |][M:2/4] F2 F2 | F2 F2 | %493
[M:2/4] z4 | z4 | z4 | z4 | z4 | z4 | z4 | z4 | z4 | z4 | z4 | z4 | z4 | z4 | z4 | z4 | z4 | z4 | %511
 z4 | z4 || z4 | z4 | z4 | z4 | z4 | z4 | z4 | z4 |][M:4/4] F4 F4 | F2 F2 |[M:4/4] z4 || z8 | z8 | %526
 z8 | z8 | z8 | z8 | z8 | z4 |] z4 | z8 | z8 | z8 | z8 | z8 | z8 | z8 | z8 | z8 | z8 | z8 | z8 | %545
 z8 | z8 | z8 | z8 | z8 | z8 | z8 | z8 | z8 | z8 | z8 | z8 |][M:6/8] F3 F3 | F F F F F F |: %559
[M:6/8] z6 | z6 | z6 | z6 | z6 |1 z6 | z6 | z6 :|2 z6 | z6 | z6 |] z6 | z6 | z6 | z6 | z6 | z6 | %576
 z6 | z6 | z6 | z6 | z6 | z6 | z6 | z6 | z6 | z6 ||[M:2/4] F2 F2 | F2 F2 |[M:2/4] z4 | z4 | z4 | %591
 z4 | z4 | z4 | z4 | z4 |] z4 | z4 | z4 | z4 | z4 | z4 | z4 | z4 | z4 | z4 | z4 | z4 | z4 | z4 | %610
 z4 | z4 | z4 | z4 | z4 | z4 | z4 | z4 | z4 | z4 | z4 | z4 | z4 | z4 | z4 | z4 | z4 | z4 | z4 | %629
 z4 | z4 | z4 | z4 | z4 | z4 | z4 |][M:6/8] F3 F3 | F F F F F F |[M:6/8] z6 | z6 | z6 | z6 | z6 | %643
 z6 | z6 | z6 | z6 | z6 | z6 | z6 | z6 | z6 | z6 | z6 :: z6 | z6 | z6 | z6 | z6 | z6 | z6 | z6 | %662
 z6 | z6 | z6 | z6 | z6 | z6 | z6 | z6 :|[M:2/4] F2 F2 | F2 F2 | z4 | z4 | z4 | z4 | z4 | z4 | z4 | %679
 z4 | z4 | z4 | z4 | z4 | z4 | z4 | z4 | z4 | z4 | z4 | z4 | z4 | z4 | z4 | z4 | z4 | z4 | z4 | %698
 z4 | z4 | z4 | z4 | z4 | z4 | z4 | z4 | z4 | z4 | z4 | z4 | z4 | z4 | z4 | z4 | z4 | z4 | z4 | %717
 z4 | z4 | z4 |][M:2/4] F2 F2 | F2 F2 |[M:2/4] z4 | z4 | z4 | z4 | z4 | z4 | z4 | z4 | z4 | z4 | %732
 z4 | z4 | z4 | z4 | z4 | z4 | z4 | z4 | z4 | z4 | z4 | z4 | z4 | z4 | z4 | z4 | z4 | z4 | z4 | %751
 z4 | z4 | z4 | z4 |][M:4/4] F4 F4 | F2 F2 F2 F2 |[M:4/4] z8 | z8 | z8 | z8 | z8 | z8 | z8 | z8 | %765
 z8 | z8 | z8 | z8 | z8 | z8 | z8 | z8 |] z8 | z8 | z8 | z8 | z8 | z8 | z8 | z8 | z8 | z8 | z8 | %784
 z8 |][M:6/8] F3 F3 | F F F F F F |:[M:6/8] z6 | z6 | z6 | z6 | z6 | z6 | z6 | z6 :: z6 | z6 | z6 | %798
 z6 | z6 | z6 | z6 | z6 :| %803

